;Generated by Cura LulzBot Edition GCodeWriter Version: 3.2.21
;FLAVOR:Marlin
;TIME:4661
;Filament used: 2.88234m
;Layer height: 0.38
;Generated with Cura_SteamEngine 3.2.21
M82 ;absolute extrusion mode
;This G-Code has been generated specifically for the LulzBot Mini with standard extruder
M75 ; Start GLCD Timer
G26 ; clear potential 'probe fail' condition
G21 ; set units to Millimetres
M107 ; disable fans
G90 ; absolute positioning
M82 ; set extruder to absolute mode
G92 E0 ; set extruder position to 0
M140 S60 ; start bed heating up
G28 ; home all axes
G0 X0 Y187 Z156 F200 ; move away from endstops
M109 R140 ;
G1 E-30 F75 ; retract filament
M109 R140 ; wait for extruder to reach wiping temp
G1 X45 Y173 F11520 ; move above wiper pad
G1 Z0 F1200 ; push nozzle into wiper
G1 X42 Y173 Z-.5 F4000             ; wiping
G1 X52 Y171 Z-.5 F4000             ; wiping
G1 X42 Y173 Z0 F4000               ; wiping
G1 X52 Y171 F4000                  ; wiping
G1 X42 Y173 F4000                  ; wiping
G1 X52 Y171 F4000                  ; wiping
G1 X42 Y173 F4000                  ; wiping
G1 X52 Y171 F4000                  ; wiping
G1 X57 Y173 F4000                  ; wiping
G1 X77 Y171 F4000                  ; wiping
G1 X57 Y173 F4000                  ; wiping
G1 X77 Y171 F4000                  ; wiping
G1 X57 Y173 F4000                  ; wiping
G1 X87 Y171 F4000                  ; wiping
G1 X77 Y173 F4000                  ; wiping
G1 X97 Y171 F4000                  ; wiping
G1 X77 Y173 F4000                  ; wiping
G1 X97 Y171 F4000                  ; wiping
G1 X77 Y173 F4000                  ; wiping
G1 X97 Y171 F4000                  ; wiping
G1 X107 Y173 F4000                 ; wiping
G1 X97 Y171 F4000                  ; wiping
G1 X107 Y173 F4000                 ; wiping
G1 X97 Y171 F4000                  ; wiping
G1 X107 Y173 F4000                 ; wiping
G1 X112 Y171 Z-0.5 F1000           ; wiping
G1 Z10 ; raise extruder
G28 X0 Y0 ; home X and Y
G0 X0 Y187 F200 ; move away from endstops
M109 R140 ; wait for extruder to reach probe temp
M204 S300 ; set probing acceleration
G29 ; start auto-leveling sequence
M204 S2000 ; restore standard acceleration
G28 X0 Y0 ; re-home to account for build variance of earlier mini builds
G0 X0 Y187 F200 ; move away from endstops
G0 Y152 F4000 ; move in front of wiper pad
G4 S1 ; pause
M400 ; wait for moves to finish
M117 Heating... ; progress indicator message on LCD
M109 R205 ; wait for extruder to reach printing temp
M190 S60 ; wait for bed to reach printing temp
G1 Z2 E0 F75 ; prime tiny bit of filament into the nozzle
M117 Mini Printing... ; progress indicator message on LCD

M221 S100
;LAYER_COUNT:76
;LAYER:0
M107
G0 F2625 X43.635 Y44.062 Z0.425
;TYPE:SKIRT
G1 F900 X44.047 Y43.763 E0.01696
G1 X44.501 Y43.531 E0.03394
G1 X44.986 Y43.373 E0.05093
G1 X99.693 Y30.21 E1.92525
G1 X105.025 Y28.767 E2.10925
G1 X107.622 Y27.946 E2.19998
G1 X112.733 Y26.087 E2.38114
G1 X117.804 Y23.908 E2.56499
G1 X121.385 Y22.189 E2.6973
G1 X122.013 Y21.964 E2.71952
G1 X123.305 Y21.645 E2.76385
G1 X123.808 Y21.562 E2.78084
G1 X124.16 Y21.551 E2.79257
G1 X125.491 Y21.582 E2.83691
G1 X125.998 Y21.634 E2.85389
G1 X126.286 Y21.7 E2.86373
G1 X127.371 Y22.002 E2.90125
G1 X128.067 Y22.286 E2.92629
G1 X129.086 Y22.847 E2.96504
G1 X129.639 Y23.231 E2.98746
G1 X130.351 Y23.844 E3.01876
G1 X130.831 Y24.358 E3.04219
G1 X133.191 Y27.506 E3.17324
G1 X133.275 Y27.622 E3.17801
G1 X134.2 Y28.976 E3.23263
G1 X134.512 Y29.549 E3.25437
G1 X134.934 Y30.552 E3.29061
G1 X135.094 Y31.035 E3.30756
G1 X135.145 Y31.286 E3.31609
G1 X135.34 Y32.475 E3.35623
G1 X135.383 Y32.983 E3.37321
G1 X135.367 Y33.32 E3.38445
G1 X135.224 Y34.772 E3.43305
G1 X135.135 Y35.273 E3.45
G1 X135.024 Y35.619 E3.4621
G1 X134.607 Y36.704 E3.50082
G1 X134.387 Y37.164 E3.51781
G1 X134.246 Y37.386 E3.52657
G1 X133.538 Y38.41 E3.56804
G1 X133.048 Y38.97 E3.59282
G1 X132.277 Y39.669 E3.62749
G1 X131.874 Y39.98 E3.64445
G1 X131.302 Y40.278 E3.66593
G1 X124.577 Y42.972 E3.90725
G1 X119.627 Y45.332 E4.08992
G1 X114.85 Y47.953 E4.27142
G1 X110.204 Y50.853 E4.45385
G1 X105.722 Y54.018 E4.63662
G1 X101.454 Y57.409 E4.8182
G1 X97.354 Y61.062 E5.00112
G1 X93.462 Y64.947 E5.1843
G1 X91.653 Y66.915 E5.27334
G1 X88.104 Y71.116 E5.45653
G1 X84.82 Y75.482 E5.63851
G1 X81.771 Y80.052 E5.82151
G1 X79.005 Y84.753 E6.00319
G1 X76.495 Y89.632 E6.18596
G1 X74.266 Y94.643 E6.36865
G1 X73.26 Y97.186 E6.45974
G1 X72.346 Y99.711 E6.54919
G1 X70.689 Y104.965 E6.7327
G1 X69.339 Y110.277 E6.91527
G1 X68.773 Y112.975 E7.0071
G1 X68.299 Y115.615 E7.09645
G1 X67.553 Y121.074 E7.27998
G1 X67.299 Y123.779 E7.37048
G1 X67.078 Y127.435 E7.49248
G1 X67.007 Y127.939 E7.50944
G1 X66.859 Y128.426 E7.52639
G1 X66.636 Y128.885 E7.54339
G1 X66.344 Y129.302 E7.56035
G1 X66.143 Y129.525 E7.57035
G1 X64.642 Y131.041 E7.64141
G1 X64.598 Y131.085 E7.64348
G1 X64.105 Y131.564 E7.66638
G1 X63.713 Y131.889 E7.68334
G1 X63.274 Y132.149 E7.70034
G1 X62.801 Y132.338 E7.71731
G1 X62.304 Y132.45 E7.73428
G1 X61.84 Y132.483 E7.74977
G1 X32.549 Y132.483 E8.72546
G1 X32.041 Y132.443 E8.74244
G1 X31.546 Y132.324 E8.7594
G1 X31.075 Y132.129 E8.77638
G1 X30.64 Y131.863 E8.79336
G1 X30.262 Y131.542 E8.80988
G1 X28.738 Y130.033 E8.88132
G1 X28.693 Y129.988 E8.88344
G1 X28.222 Y129.503 E8.90596
G1 X27.897 Y129.111 E8.92292
G1 X27.637 Y128.673 E8.93989
G1 X27.449 Y128.199 E8.95688
G1 X27.337 Y127.702 E8.97385
G1 X27.304 Y127.245 E8.98911
G1 X27.294 Y122.011 E9.16345
G1 X27.137 Y116.468 E9.34817
G1 X26.675 Y111.026 E9.5301
G1 X25.905 Y105.626 E9.71179
G1 X24.826 Y100.243 E9.89467
G1 X24.18 Y97.606 E9.9851
G1 X22.649 Y92.338 E10.16784
G1 X20.812 Y87.135 E10.35164
G1 X19.934 Y84.931 E10.43067
G1 X19.783 Y84.444 E10.44765
G1 X19.71 Y83.94 E10.46462
G1 X19.717 Y83.431 E10.48157
G1 X19.803 Y82.929 E10.49854
G1 X19.966 Y82.446 E10.51552
G1 X20.182 Y82.03 E10.53113
G1 X42.975 Y44.835 E11.98424
G1 X43.274 Y44.423 E12.0012
G1 X43.635 Y44.062 E12.0182
G1 F600 E10.2682
G0 F2625 X45.008 Y46.447
G0 X46.229 Y47.195
G0 X59.224 Y47.727
G0 X59.317 Y47.761
;TYPE:WALL-INNER
G1 F600 E12.0182
G1 F900 X59.536 Y48.063 E12.03063
G1 X69.743 Y62.115 E12.60916
G1 X112.841 Y36.221 E14.28396
G1 X112.352 Y35.031 E14.32681
G1 X59.68 Y47.674 E16.13117
G1 X59.317 Y47.761 E16.13844
G0 F2625 X59.224 Y47.727
G0 X59.792 Y55.307
G0 X59.732 Y55.386
G1 F900 X58.628 Y54.676 E16.18216
G1 X57.847 Y54.314 E16.21083
G1 X57.701 Y54.258 E16.21604
G1 X56.972 Y54.02 E16.24159
G1 X56.283 Y53.862 E16.26513
G1 X55.355 Y53.754 E16.29626
G1 X54.573 Y53.743 E16.32231
G1 X53.95 Y53.79 E16.34312
G1 X53.479 Y53.859 E16.35897
G1 X53.019 Y53.952 E16.37461
G1 X52.646 Y54.049 E16.38745
G1 X52.34 Y54.145 E16.39813
G1 X51.976 Y54.277 E16.41103
G1 X51.683 Y54.398 E16.42159
G1 X51.317 Y54.566 E16.435
G1 X51.033 Y54.714 E16.44567
G1 X50.758 Y54.872 E16.45623
G1 X50.435 Y55.074 E16.46892
G1 X50.117 Y55.3 E16.48192
G1 X49.866 Y55.492 E16.49244
G1 X49.624 Y55.695 E16.50297
G1 X49.326 Y55.966 E16.51638
G1 X49.1 Y56.191 E16.52701
G1 X48.837 Y56.476 E16.53992
G1 X48.447 Y56.96 E16.56063
G1 X48.208 Y57.302 E16.57453
G1 X48.034 Y57.571 E16.5852
G1 X47.842 Y57.908 E16.59812
G1 X47.696 Y58.188 E16.60864
G1 X47.558 Y58.48 E16.6194
G1 X47.349 Y58.998 E16.638
G1 X47.182 Y59.507 E16.65585
G1 X47.099 Y59.819 E16.6666
G1 X47.018 Y60.187 E16.67915
G1 X46.962 Y60.502 E16.68981
G1 X46.911 Y60.885 E16.70268
G1 X46.883 Y61.203 E16.71331
G1 X46.869 Y61.52 E16.72388
G1 X46.869 Y61.929 E16.73751
G1 X46.882 Y62.248 E16.74814
G1 X46.909 Y62.563 E16.75867
G1 X46.959 Y62.949 E16.77164
G1 X47.013 Y63.261 E16.78219
G1 X47.08 Y63.572 E16.79278
G1 X47.189 Y63.983 E16.80695
G1 X47.285 Y64.291 E16.81769
G1 X47.43 Y64.679 E16.83149
G1 X47.55 Y64.967 E16.84188
G1 X47.683 Y65.256 E16.85248
G1 X47.862 Y65.601 E16.86543
G1 X48.182 Y66.131 E16.88605
G1 X48.402 Y66.449 E16.89893
G1 X48.595 Y66.703 E16.90956
G1 X48.838 Y66.996 E16.92224
G1 X49.057 Y67.234 E16.93301
G1 X49.444 Y67.618 E16.95117
G1 X49.994 Y68.079 E16.97508
G1 X50.566 Y68.48 E16.99834
G1 X51.17 Y68.829 E17.02158
G1 X51.742 Y69.097 E17.04262
G1 X52.306 Y69.312 E17.06273
G1 X52.762 Y69.45 E17.0786
G1 X53.217 Y69.56 E17.09419
G1 X53.626 Y69.639 E17.10807
G1 X53.946 Y69.68 E17.11881
G1 X54.326 Y69.717 E17.13153
G1 X54.742 Y69.73 E17.14539
G1 X55.218 Y69.725 E17.16125
G1 X55.907 Y69.664 E17.18429
G1 X56.596 Y69.544 E17.20759
G1 X57.279 Y69.359 E17.23116
G1 X57.946 Y69.113 E17.25484
G1 X58.386 Y68.917 E17.27089
G1 X58.862 Y68.663 E17.28886
G1 X59.322 Y68.379 E17.30686
G1 X59.714 Y68.093 E17.32303
G1 X60.38 Y67.529 E17.3521
G1 X60.864 Y67.024 E17.3754
G1 X61.212 Y66.6 E17.39367
G1 X61.698 Y65.898 E17.42211
G1 X62.006 Y65.337 E17.44343
G1 X62.317 Y64.645 E17.4687
G1 X62.626 Y63.681 E17.50242
G1 X62.83 Y62.477 E17.5431
G1 X62.861 Y61.759 E17.56704
G1 X62.832 Y61.03 E17.59134
G1 X62.676 Y60.038 E17.62479
G1 X62.403 Y59.065 E17.65845
G1 X62.13 Y58.394 E17.68258
G1 X61.885 Y57.898 E17.70101
G1 X61.478 Y57.241 E17.72676
G1 X61.011 Y56.618 E17.75269
G1 X60.528 Y56.086 E17.77663
G1 X59.732 Y55.386 E17.81194
G1 F600 E16.06194
G0 F2625 X59.792 Y55.307
G0 X61.041 Y56.593
G0 X61.919 Y57.879
G0 X62.44 Y59.053
G0 X62.715 Y60.03
G0 X62.871 Y61.027
G0 X62.869 Y62.481
G0 X62.664 Y63.69
G0 X62.354 Y64.659
G0 X61.732 Y65.919
G0 X60.977 Y66.936
G0 X54.311 Y73.6
G0 X53.033 Y74.27
G0 X52.43 Y76.926
G0 X52.47 Y78.349
G0 X52.049 Y78.438
G0 X52.061 Y78.339
G1 F600 E17.81194
G1 F900 X52.188 Y78.339 E17.81617
G1 X52.205 Y78.339 E17.81673
G1 X52.487 Y78.34 E17.82613
G1 X52.352 Y78.537
G1 X52.205 Y78.752 E17.82824
G1 X52.188 Y78.791 E17.8288
G1 X52.06 Y78.791 E17.83248
G1 X51.865 Y78.791 E17.83898
G1 X50.586 Y78.786 E17.88158
G1 X50.588 Y77.97 E17.90876
G1 X50.588 Y77.961 E17.90906
G1 X50.589 Y77.606 E17.92089
G1 X50.59 Y77.473 E17.92532
G1 X50.682 Y77.606
G1 X51.076 Y77.962 E17.93606
G1 X51.083 Y77.966 E17.93632
G1 X51.548 Y78.209 E17.9538
G1 X51.872 Y78.292 E17.96494
G1 X52.061 Y78.339 E17.97003
G1 F600 E16.22003
G0 F2625 X52.049 Y78.438
G0 X50.608 Y78.04
G0 X49.173 Y78.035
G0 X45.499 Y78.025
G0 X44.064 Y78.02
G0 X43.652 Y78.018
G0 X43.596 Y77.936
G1 F600 E17.97003
G1 F900 X43.995 Y77.584 E17.98775
G1 X44.085 Y77.454 E17.99302
G1 X44.085 Y77.584
G1 X44.084 Y77.937 E17.99619
G1 X44.084 Y77.946 E17.99649
G1 X44.081 Y78.768 E18.02387
G1 X42.779 Y78.764 E18.06724
G1 X42.609 Y78.764 E18.0729
G1 X42.483 Y78.763 E18.0771
G1 X42.468 Y78.727 E18.0784
G1 X42.318 Y78.498 E18.08752
G1 X42.19 Y78.304 E18.09526
G1 X42.468 Y78.304
G1 X42.484 Y78.304
G1 X42.61 Y78.305 E18.09581
G1 X42.775 Y78.266 E18.10123
G1 X43.124 Y78.181 E18.11319
G1 X43.588 Y77.94 E18.13061
G1 X43.596 Y77.936 E18.1309
G1 F600 E16.3809
G0 F2625 X43.652 Y78.018
G0 X44.051 Y78.748
G0 X44.047 Y80.184
G0 X43.92 Y120.51
G0 X43.916 Y121.944
G0 X43.912 Y122.995
G0 X43.837 Y123.06
G1 F600 E18.1309
G1 F900 X43.54 Y122.797 E18.14412
G1 X43.438 Y122.706 E18.14867
G1 X42.972 Y122.459 E18.16624
G1 X42.815 Y122.419 E18.17164
G1 X42.454 Y122.329 E18.18403
G1 X42.378 Y122.329 E18.18656
G1 X42.357 Y122.329 E18.18726
G1 X42.107 Y122.328 E18.19559
G1 X42.219 Y122.166
G1 X42.358 Y121.966
G1 X42.378 Y121.92 E18.19566
G1 X42.455 Y121.92 E18.19731
G1 X42.828 Y121.921 E18.20862
G1 X43.731 Y121.925 E18.2387
G1 X43.981 Y121.925 E18.24702
G1 X43.981 Y122.175 E18.25241
G1 X43.978 Y122.663 E18.26867
G1 X43.977 Y123.06 E18.27756
G1 X43.976 Y123.265 E18.28439
G1 X43.837 Y123.06
G1 F600 E16.53439
G0 F2625 X43.912 Y122.995
G0 X43.959 Y122.624
G0 X45.394 Y122.629
G0 X49.018 Y122.641
G0 X50.452 Y122.645
G0 X50.866 Y122.65
G0 X50.922 Y122.732
G1 F600 E18.28439
G1 F900 X50.522 Y123.083 E18.30211
G1 X50.431 Y123.214 E18.30743
G1 X50.431 Y123.083
G1 X50.432 Y122.731 E18.31061
G1 X50.432 Y122.723 E18.31088
G1 X50.435 Y121.948 E18.3367
G1 X51.538 Y121.951 E18.37344
G1 X51.91 Y121.952 E18.38583
G1 X52.038 Y121.953 E18.39009
G1 X52.055 Y121.993 E18.39154
G1 X52.18 Y122.179 E18.39901
G1 X52.305 Y122.364 E18.40644
G1 X52.055 Y122.364
G1 X52.037 Y122.364
G1 X51.909 Y122.363
G1 X51.547 Y122.449 E18.41774
G1 X51.392 Y122.487 E18.42306
G1 X50.929 Y122.729 E18.44046
G1 X50.922 Y122.732 E18.44071
G1 F600 E16.69071
G0 F2625 X50.866 Y122.65
G0 X52.027 Y121.969
G0 X53.303 Y121.312
G0 X56.705 Y118.452
G0 X58.14 Y118.456
G0 X63.059 Y77.229
G0 X68.998 Y67.527
G0 X127.937 Y32.078
G0 X127.913 Y32.175
G1 F600 E18.44071
G1 F900 X127.699 Y32.303 E18.44902
G1 X69.026 Y67.555 E20.72907
G1 X63.097 Y77.239 E21.1073
G1 X63.094 Y126.931 E22.76256
G1 X61.532 Y128.493 E22.83615
G1 X53.232 Y128.493 E23.11262
G1 X52.935 Y128.493 E23.12252
G1 X52.418 Y128.493 E23.13974
G1 X51.887 Y128.493 E23.15742
G1 X51.373 Y128.493 E23.17455
G1 X51.091 Y128.493 E23.18394
G1 X49.034 Y128.493 E23.25246
G1 X48.626 Y128.493 E23.26605
G1 X48.07 Y128.493 E23.28457
G1 X47.766 Y128.493 E23.2947
G1 X48.07 Y128.438
G1 X48.626 Y128.223 E23.30182
G1 X48.974 Y128.01 E23.31241
G1 X49.134 Y127.912 E23.31866
G1 X49.575 Y127.512 E23.33849
G1 X49.844 Y127.161 E23.35322
G1 X49.938 Y127.038 E23.35838
G1 X49.969 Y126.975 E23.36072
G1 X50.079 Y126.755 E23.36891
G1 X50.155 Y126.955
G1 X50.207 Y127.092
G1 X50.295 Y127.221 E23.37411
G1 X50.505 Y127.529 E23.38653
G1 X50.902 Y127.885 E23.40429
G1 X51.123 Y128.001 E23.41261
G1 X51.373 Y128.132 E23.42074
G1 X51.887 Y128.262 E23.43136
G1 X52.418 Y128.263 E23.43951
G1 X52.935 Y128.139 E23.45
G1 X53.198 Y128.002 E23.45848
G1 X53.405 Y127.894 E23.46625
G1 X53.806 Y127.543 E23.484
G1 X54.109 Y127.105 E23.50175
G1 X54.298 Y126.609 E23.51943
G1 X54.36 Y126.128 E23.53558
G1 X54.364 Y124.513 E23.58938
G1 X54.313 Y124.08 E23.6039
G1 X54.308 Y124.032 E23.60551
G1 X54.204 Y123.752 E23.61546
G1 X54.137 Y123.575 E23.62176
G1 X54.397 Y123.633
G1 X54.474 Y123.651
G1 X54.523 Y123.652 E23.62339
G1 X55.08 Y123.672 E23.64196
G1 X55.679 Y123.579 E23.66215
G1 X56.251 Y123.377 E23.68236
G1 X56.777 Y123.07 E23.70265
G1 X57.234 Y122.669 E23.7229
G1 X57.607 Y122.191 E23.74309
G1 X57.886 Y121.652 E23.76331
G1 X58.059 Y121.067 E23.78363
G1 X58.113 Y120.496 E23.80274
G1 X58.12 Y118.456 E23.87069
G1 X58.12 Y79.437 E25.17043
G1 X58.035 Y79.137 E25.18081
G1 X57.762 Y78.593 E25.20109
G1 X57.389 Y78.111 E25.22139
G1 X56.935 Y77.709 E25.24159
G1 X56.414 Y77.397 E25.26182
G1 X55.842 Y77.19 E25.28208
G1 X55.243 Y77.093 E25.30229
G1 X54.662 Y77.111 E25.32166
G1 X54.636 Y77.111 E25.32252
G1 X54.568 Y77.125 E25.32484
G1 X54.278 Y77.189 E25.33473
G1 X54.35 Y77.002
G1 X54.472 Y76.687 E25.33947
G1 X54.475 Y76.662 E25.34031
G1 X54.534 Y76.206 E25.35563
G1 X54.539 Y74.591 E25.40942
G1 X54.484 Y74.107 E25.42565
G1 X54.294 Y73.609 E25.4434
G1 X53.995 Y73.172 E25.46104
G1 X53.599 Y72.818 E25.47874
G1 X53.13 Y72.571 E25.49639
G1 X52.614 Y72.441 E25.51412
G1 X52.082 Y72.44 E25.53184
G1 X51.569 Y72.564 E25.54942
G1 X51.096 Y72.809 E25.56716
G1 X50.697 Y73.16 E25.58486
G1 X50.482 Y73.467 E25.59735
G1 X50.391 Y73.597 E25.60263
G1 X50.335 Y73.747 E25.60797
G1 X50.261 Y73.943 E25.61495
G1 X50.151 Y73.712
G1 X50.131 Y73.672
G1 X50.037 Y73.545 E25.62021
G1 X49.769 Y73.185 E25.63516
G1 X49.326 Y72.775 E25.65527
G1 X48.813 Y72.453 E25.67544
G1 X48.252 Y72.232 E25.69553
G1 X47.656 Y72.118 E25.71574
G1 X47.051 Y72.117 E25.73589
G1 X46.456 Y72.227 E25.75605
G1 X45.892 Y72.446 E25.7762
G1 X45.377 Y72.765 E25.79638
G1 X44.932 Y73.175 E25.81654
G1 X44.663 Y73.532 E25.83143
G1 X44.569 Y73.658 E25.83666
G1 X44.552 Y73.694 E25.83799
G1 X44.44 Y73.921 E25.84642
G1 X44.369 Y73.734
G1 X44.309 Y73.575
G1 X44.22 Y73.445 E25.85167
G1 X44.01 Y73.138 E25.86406
G1 X43.613 Y72.783 E25.8818
G1 X43.144 Y72.536 E25.89946
G1 X42.628 Y72.406 E25.91718
G1 X42.099 Y72.405 E25.9348
G1 X41.583 Y72.529 E25.95248
G1 X41.11 Y72.774 E25.97022
G1 X40.711 Y73.126 E25.98795
G1 X40.408 Y73.562 E26.00563
G1 X40.218 Y74.059 E26.02336
G1 X40.159 Y74.54 E26.0395
G1 X40.152 Y76.154 E26.09326
G1 X40.205 Y76.603 E26.10832
G1 X40.209 Y76.638 E26.1095
G1 X40.326 Y76.948 E26.12053
G1 X40.394 Y77.128 E26.12694
G1 X40.11 Y77.062
G1 X40.058 Y77.049
G1 X40.022 Y77.048 E26.12814
G1 X39.451 Y77.024 E26.14718
G1 X38.847 Y77.114 E26.16752
G1 X38.273 Y77.316 E26.18779
G1 X37.748 Y77.623 E26.20805
