;Generated by Cura LulzBot Edition GCodeWriter Version: 3.2.21
;FLAVOR:Marlin
;TIME:2410
;Filament used: 0.982867m
;Layer height: 0.18
;Generated with Cura_SteamEngine 3.2.21
M82 ;absolute extrusion mode
;This G-Code has been generated specifically for the LulzBot Mini with standard extruder
M75 ; Start GLCD Timer
G26 ; clear potential 'probe fail' condition
G21 ; set units to Millimetres
M107 ; disable fans
G90 ; absolute positioning
M82 ; set extruder to absolute mode
G92 E0 ; set extruder position to 0
M140 S60 ; start bed heating up
G28 ; home all axes
G0 X0 Y187 Z156 F200 ; move away from endstops
M109 R140 ;
G1 E-30 F75 ; retract filament
M109 R140 ; wait for extruder to reach wiping temp
G1 X45 Y173 F11520 ; move above wiper pad
G1 Z0 F1200 ; push nozzle into wiper
G1 X42 Y173 Z-.5 F4000             ; wiping
G1 X52 Y171 Z-.5 F4000             ; wiping
G1 X42 Y173 Z0 F4000               ; wiping
G1 X52 Y171 F4000                  ; wiping
G1 X42 Y173 F4000                  ; wiping
G1 X52 Y171 F4000                  ; wiping
G1 X42 Y173 F4000                  ; wiping
G1 X52 Y171 F4000                  ; wiping
G1 X57 Y173 F4000                  ; wiping
G1 X77 Y171 F4000                  ; wiping
G1 X57 Y173 F4000                  ; wiping
G1 X77 Y171 F4000                  ; wiping
G1 X57 Y173 F4000                  ; wiping
G1 X87 Y171 F4000                  ; wiping
G1 X77 Y173 F4000                  ; wiping
G1 X97 Y171 F4000                  ; wiping
G1 X77 Y173 F4000                  ; wiping
G1 X97 Y171 F4000                  ; wiping
G1 X77 Y173 F4000                  ; wiping
G1 X97 Y171 F4000                  ; wiping
G1 X107 Y173 F4000                 ; wiping
G1 X97 Y171 F4000                  ; wiping
G1 X107 Y173 F4000                 ; wiping
G1 X97 Y171 F4000                  ; wiping
G1 X107 Y173 F4000                 ; wiping
G1 X112 Y171 Z-0.5 F1000           ; wiping
G1 Z10 ; raise extruder
G28 X0 Y0 ; home X and Y
G0 X0 Y187 F200 ; move away from endstops
M109 R140 ; wait for extruder to reach probe temp
M204 S300 ; set probing acceleration
G29 ; start auto-leveling sequence
M204 S2000 ; restore standard acceleration
G28 X0 Y0 ; re-home to account for build variance of earlier mini builds
G0 X0 Y187 F200 ; move away from endstops
G0 Y152 F4000 ; move in front of wiper pad
G4 S1 ; pause
M400 ; wait for moves to finish
M117 Heating... ; progress indicator message on LCD
M109 R215 ; wait for extruder to reach printing temp
M190 S60 ; wait for bed to reach printing temp
G1 Z2 E0 F75 ; prime tiny bit of filament into the nozzle
M117 Mini Printing... ; progress indicator message on LCD

M221 S100
;LAYER_COUNT:27
;LAYER:0
M107
G0 F2625 X49.608 Y70.406 Z0.425
;TYPE:SKIRT
G1 F900 X50.075 Y70.12 E0.01824
G1 X50.578 Y69.904 E0.03648
G1 X51.107 Y69.764 E0.0547
G1 X51.798 Y69.7 E0.07782
G1 X98.287 Y69.7 E1.62639
G1 X98.833 Y69.74 E1.64462
G1 X99.367 Y69.859 E1.66285
G1 X99.878 Y70.054 E1.68106
G1 X100.356 Y70.322 E1.69932
G1 X100.958 Y70.818 E1.7253
G1 X102.943 Y72.832 E1.8195
G1 X103.298 Y73.248 E1.83771
G1 X103.588 Y73.713 E1.85597
G1 X103.807 Y74.214 E1.87418
G1 X103.952 Y74.742 E1.89242
G1 X104.022 Y75.463 E1.91655
G1 X104.033 Y104.734 E2.89158
G1 X103.993 Y105.28 E2.90981
G1 X103.874 Y105.814 E2.92804
G1 X103.679 Y106.325 E2.94626
G1 X103.412 Y106.803 E2.96449
G1 X102.936 Y107.385 E2.98954
G1 X100.951 Y109.372 E3.0831
G1 X100.537 Y109.73 E3.10133
G1 X100.075 Y110.024 E3.11957
G1 X99.576 Y110.248 E3.13779
G1 X99.049 Y110.396 E3.15602
G1 X98.299 Y110.472 E3.18113
G1 X51.799 Y110.48 E4.73006
G1 X51.253 Y110.44 E4.7483
G1 X50.718 Y110.321 E4.76656
G1 X50.207 Y110.126 E4.78478
G1 X49.73 Y109.858 E4.803
G1 X49.159 Y109.395 E4.82749
G1 X47.635 Y107.886 E4.89893
G1 X47.584 Y107.834 E4.90135
G1 X47.113 Y107.349 E4.92387
G1 X46.761 Y106.929 E4.94213
G1 X46.474 Y106.463 E4.96036
G1 X46.258 Y105.96 E4.97859
G1 X46.118 Y105.431 E4.99682
G1 X46.053 Y104.736 E5.02007
G1 X46.053 Y75.445 E5.99577
G1 X46.093 Y74.899 E6.014
G1 X46.212 Y74.365 E6.03223
G1 X46.407 Y73.854 E6.05045
G1 X46.675 Y73.376 E6.0687
G1 X47.138 Y72.806 E6.09316
G1 X48.647 Y71.282 E6.1646
G1 X48.702 Y71.228 E6.16717
G1 X49.188 Y70.757 E6.18971
G1 X49.608 Y70.406 E6.20795
G0 F2625 X49.929 Y70.791
G1 F900 X50.367 Y70.532 E6.2249
G1 X50.841 Y70.344 E6.24188
G1 X51.338 Y70.233 E6.25884
G1 X51.798 Y70.2 E6.27421
G1 X98.287 Y70.2 E7.82277
G1 X98.795 Y70.24 E7.83975
G1 X99.29 Y70.359 E7.8567
G1 X99.761 Y70.554 E7.87368
G1 X100.196 Y70.82 E7.89067
G1 X100.602 Y71.169 E7.9085
G1 X102.587 Y73.183 E8.0027
G1 X102.915 Y73.572 E8.01965
G1 X103.178 Y74.009 E8.03664
G1 X103.37 Y74.481 E8.05361
G1 X103.485 Y74.977 E8.07057
G1 X103.522 Y75.463 E8.08681
G1 X103.533 Y104.734 E9.06183
G1 X103.493 Y105.242 E9.07881
G1 X103.375 Y105.737 E9.09576
G1 X103.18 Y106.208 E9.11274
G1 X102.914 Y106.643 E9.12972
G1 X102.582 Y107.032 E9.14676
G1 X100.597 Y109.019 E9.24032
G1 X100.21 Y109.35 E9.25728
G1 X99.776 Y109.617 E9.27425
G1 X99.305 Y109.812 E9.29123
G1 X98.81 Y109.931 E9.30819
G1 X98.299 Y109.972 E9.32527
G1 X51.799 Y109.98 E10.8742
G1 X51.291 Y109.94 E10.89117
G1 X50.795 Y109.821 E10.90816
G1 X50.324 Y109.627 E10.92513
G1 X49.89 Y109.361 E10.94209
G1 X49.511 Y109.039 E10.95865
G1 X47.987 Y107.53 E11.03009
G1 X47.942 Y107.485 E11.03221
G1 X47.471 Y107 E11.05473
G1 X47.146 Y106.608 E11.0717
G1 X46.886 Y106.17 E11.08866
G1 X46.698 Y105.696 E11.10565
G1 X46.586 Y105.199 E11.12262
G1 X46.553 Y104.736 E11.13808
G1 X46.553 Y75.445 E12.11377
G1 X46.593 Y74.937 E12.13075
G1 X46.712 Y74.442 E12.14771
G1 X46.907 Y73.971 E12.16469
G1 X47.173 Y73.536 E12.18167
G1 X47.494 Y73.158 E12.19819
G1 X49.003 Y71.634 E12.26963
G1 X49.05 Y71.587 E12.27184
G1 X49.536 Y71.116 E12.29439
G1 X49.929 Y70.791 E12.31138
G1 F600 E10.56138
G1 F480 Z1.425
G0 F2625 X55.338 Y74.36 Z1.425
;TYPE:WALL-INNER
G1 F480 Z0.425
G1 F600 E12.31138
G1 F900 X54.879 Y74.626 E12.32905
G1 X54.813 Y74.685 E12.332
G1 X54.486 Y74.979 E12.34664
G1 X54.174 Y75.408 E12.36431
G1 X53.958 Y75.891 E12.38194
G1 X53.848 Y76.411 E12.39964
G1 X53.848 Y76.938 E12.4172
G1 X53.956 Y77.455 E12.43479
G1 X54.171 Y77.941 E12.45249
G1 X54.484 Y78.37 E12.47018
G1 X54.876 Y78.723 E12.48775
G1 X55.334 Y78.989 E12.5054
G1 X55.839 Y79.153 E12.52308
G1 X56.324 Y79.204 E12.53933
G1 X57.165 Y79.205 E12.56734
G1 X57.652 Y79.154 E12.58365
G1 X58.156 Y78.992 E12.60129
G1 X58.615 Y78.726 E12.61896
G1 X59.008 Y78.373 E12.63655
G1 X59.32 Y77.945 E12.6542
G1 X59.535 Y77.462 E12.67181
G1 X59.646 Y76.943 E12.68949
G1 X59.646 Y76.414 E12.70711
G1 X59.536 Y75.896 E12.72475
G1 X59.322 Y75.413 E12.74235
G1 X59.011 Y74.983 E12.76002
G1 X58.685 Y74.69 E12.77462
G1 X58.618 Y74.629 E12.77764
G1 X58.159 Y74.363 E12.79531
G1 X57.656 Y74.199 E12.81294
G1 X58.159 Y74.199 E12.8155
G1 X58.617 Y74.199 E12.82213
G1 X58.708 Y74.199 E12.82496
G1 X92.002 Y74.193 E13.934
G1 X92.06 Y74.193 E13.93593
G1 X92.521 Y74.192 E13.95128
G1 X93.024 Y74.191 E13.96804
G1 X93.32 Y74.19 E13.9779
G1 X93.025 Y74.221
G1 X92.522 Y74.384 E13.98229
G1 X92.061 Y74.648 E13.99394
G1 X92.018 Y74.686 E13.99577
G1 X91.667 Y75.004 E14.01155
G1 X91.357 Y75.431 E14.02912
G1 X91.14 Y75.914 E14.04676
G1 X91.03 Y76.434 E14.06447
G1 X91.03 Y76.962 E14.08205
G1 X91.138 Y77.478 E14.09961
G1 X91.353 Y77.964 E14.11732
G1 X91.666 Y78.393 E14.13501
G1 X92.058 Y78.746 E14.15258
G1 X92.517 Y79.012 E14.17025
G1 X93.022 Y79.176 E14.18793
G1 X93.507 Y79.227 E14.20418
G1 X94.348 Y79.228 E14.23219
G1 X94.835 Y79.177 E14.2485
G1 X95.339 Y79.015 E14.26614
G1 X95.798 Y78.749 E14.28381
G1 X96.191 Y78.396 E14.30141
G1 X96.503 Y77.968 E14.31905
G1 X96.718 Y77.485 E14.33666
G1 X96.829 Y76.966 E14.35434
G1 X96.829 Y76.438 E14.37193
G1 X96.719 Y75.92 E14.38957
G1 X96.505 Y75.437 E14.40716
G1 X96.194 Y75.006 E14.42487
G1 X95.837 Y74.684 E14.44088
G1 X95.801 Y74.652 E14.44249
G1 X95.342 Y74.386 E14.46016
G1 X94.839 Y74.222 E14.47778
G1 X94.533 Y74.19 E14.48803
G1 X94.839 Y74.19
G1 X95.342 Y74.19 E14.49168
G1 X95.801 Y74.19 E14.49886
G1 X95.85 Y74.19 E14.50043
G1 X97.981 Y74.19 E14.57142
G1 X99.543 Y75.752 E14.645
G1 X99.543 Y104.428 E15.60021
G1 X97.981 Y105.99 E15.67379
G1 X96.052 Y105.99 E15.73805
G1 X95.789 Y105.99 E15.74681
G1 X95.33 Y105.99 E15.7621
G1 X95.231 Y105.99 E15.76539
G1 X95.33 Y105.958
G1 X95.789 Y105.692 E15.77026
G1 X95.984 Y105.516 E15.77736
G1 X96.182 Y105.338 E15.78623
G1 X96.492 Y104.91 E15.80383
G1 X96.708 Y104.426 E15.82148
G1 X96.818 Y103.907 E15.83916
G1 X96.818 Y103.38 E15.85671
G1 X96.708 Y102.86 E15.87442
G1 X96.492 Y102.377 E15.89204
G1 X96.182 Y101.95 E15.90962
G1 X95.789 Y101.596 E15.92724
G1 X95.33 Y101.33 E15.94491
G1 X94.825 Y101.166 E15.96259
G1 X94.339 Y101.116 E15.97887
G1 X93.499 Y101.116 E16.00685
G1 X93.012 Y101.166 E16.02316
G1 X92.508 Y101.33 E16.04081
G1 X92.047 Y101.595 E16.05852
G1 X91.654 Y101.95 E16.07616
G1 X91.343 Y102.378 E16.09379
G1 X91.129 Y102.86 E16.11135
G1 X91.018 Y103.379 E16.12903
G1 X91.018 Y103.908 E16.14665
G1 X91.129 Y104.427 E16.16433
G1 X91.343 Y104.909 E16.1819
G1 X91.654 Y105.338 E16.19955
G1 X91.852 Y105.517 E16.20844
G1 X92.047 Y105.693 E16.21719
G1 X92.508 Y105.958 E16.2349
G1 X92.606 Y105.99 E16.23834
G1 X92.508 Y105.99
G1 X92.047 Y105.99
G1 X91.784 Y105.99 E16.24544
G1 X58.869 Y105.99 E17.34185
G1 X58.606 Y105.99 E17.35061
G1 X58.147 Y105.99 E17.3659
G1 X58.048 Y105.99 E17.3692
G1 X58.147 Y105.958
G1 X58.606 Y105.692 E17.37407
G1 X58.801 Y105.516 E17.38116
G1 X58.999 Y105.338 E17.39003
G1 X59.309 Y104.912 E17.40758
G1 X59.525 Y104.426 E17.4253
G1 X59.635 Y103.908 E17.44294
G1 X59.635 Y103.38 E17.46053
G1 X59.525 Y102.86 E17.47823
G1 X59.309 Y102.377 E17.49585
G1 X58.999 Y101.95 E17.51343
G1 X58.605 Y101.595 E17.5311
G1 X58.146 Y101.331 E17.54873
G1 X57.642 Y101.167 E17.56639
G1 X57.156 Y101.116 E17.58267
G1 X56.316 Y101.116 E17.61065
G1 X55.829 Y101.167 E17.62696
G1 X55.325 Y101.331 E17.64461
G1 X54.866 Y101.595 E17.66225
G1 X54.472 Y101.95 E17.67992
G1 X54.161 Y102.378 E17.69754
G1 X53.947 Y102.86 E17.71511
G1 X53.836 Y103.379 E17.73279
G1 X53.836 Y103.91 E17.75047
G1 X53.947 Y104.426 E17.76806
G1 X54.161 Y104.91 E17.78568
G1 X54.472 Y105.338 E17.80331
G1 X54.67 Y105.516 E17.81218
G1 X54.865 Y105.692 E17.82093
G1 X55.324 Y105.958 E17.8386
G1 X55.423 Y105.99 E17.84206
G1 X55.324 Y105.99
G1 X54.865 Y105.99
G1 X54.602 Y105.99 E17.84918
G1 X52.105 Y105.99 E17.93235
G1 X50.543 Y104.428 E18.00593
G1 X50.543 Y75.752 E18.96114
G1 X52.105 Y74.19 E19.03472
G1 X54.79 Y74.195 E19.12416
G1 X54.879 Y74.195 E19.12621
G1 X55.338 Y74.196 E19.13506
G1 X55.842 Y74.198 E19.15185
G1 X55.338 Y74.36 E19.15527
G0 F2625 X55.298 Y74.269
G0 X54.457 Y74.953
G0 X54.14 Y75.388
G0 X53.92 Y75.879
G0 X53.809 Y76.407
G0 X53.809 Y76.942
G0 X53.918 Y77.467
G0 X54.137 Y77.96
G0 X54.455 Y78.396
G0 X54.853 Y78.755
G0 X55.318 Y79.025
G0 X55.607 Y79.119
G0 X88.406 Y84.475
G0 X88.44 Y84.568
G1 F900 X87.912 Y84.795 E19.17442
G1 X87.409 Y85.07 E19.19351
G1 X86.934 Y85.394 E19.21266
G1 X86.493 Y85.762 E19.2318
G1 X86.091 Y86.173 E19.25095
G1 X85.73 Y86.621 E19.27011
G1 X85.416 Y87.103 E19.28927
G1 X85.15 Y87.612 E19.30841
G1 X84.936 Y88.145 E19.32754
G1 X84.774 Y88.696 E19.34667
G1 X84.667 Y89.261 E19.36582
G1 X84.617 Y89.833 E19.38495
G1 X84.622 Y90.409 E19.40414
G1 X84.685 Y90.979 E19.42324
G1 X84.801 Y91.542 E19.44239
G1 X84.973 Y92.092 E19.46158
G1 X85.2 Y92.62 E19.48073
G1 X85.475 Y93.123 E19.49982
G1 X85.799 Y93.598 E19.51898
G1 X86.167 Y94.039 E19.53811
G1 X86.579 Y94.441 E19.55728
G1 X87.027 Y94.802 E19.57645
G1 X87.507 Y95.116 E19.59555
G1 X88.017 Y95.382 E19.61471
G1 X88.55 Y95.596 E19.63385
G1 X89.101 Y95.758 E19.65298
G1 X89.666 Y95.865 E19.67213
G1 X90.238 Y95.915 E19.69126
G1 X90.814 Y95.91 E19.71045
G1 X91.384 Y95.847 E19.72955
G1 X91.947 Y95.731 E19.7487
G1 X92.497 Y95.559 E19.76789
G1 X93.025 Y95.332 E19.78704
G1 X93.528 Y95.057 E19.80613
G1 X94.003 Y94.733 E19.82528
G1 X94.444 Y94.365 E19.84442
G1 X94.846 Y93.953 E19.86359
G1 X95.207 Y93.505 E19.88276
G1 X95.521 Y93.025 E19.90186
G1 X95.787 Y92.515 E19.92102
G1 X96.001 Y91.982 E19.94015
G1 X96.163 Y91.431 E19.95929
G1 X96.27 Y90.866 E19.97844
G1 X96.32 Y90.294 E19.99757
G1 X96.315 Y89.718 E20.01675
G1 X96.252 Y89.148 E20.03586
G1 X96.136 Y88.585 E20.055
G1 X95.964 Y88.035 E20.0742
G1 X95.737 Y87.507 E20.09334
G1 X95.462 Y87.004 E20.11244
G1 X95.138 Y86.529 E20.13159
G1 X94.77 Y86.088 E20.15073
G1 X94.359 Y85.686 E20.16988
G1 X93.911 Y85.325 E20.18904
G1 X93.429 Y85.011 E20.2082
G1 X92.92 Y84.745 E20.22733
G1 X92.387 Y84.531 E20.24647
G1 X91.836 Y84.369 E20.2656
G1 X91.271 Y84.262 E20.28475
G1 X90.699 Y84.212 E20.30388
G1 X90.123 Y84.217 E20.32306
G1 X89.553 Y84.28 E20.34217
G1 X88.99 Y84.396 E20.36132
G1 X88.44 Y84.568 E20.38051
G0 F2625 X88.406 Y84.475
G0 X86.91 Y85.363
G0 X86.67 Y85.584
G0 X85.634 Y86.587
G0 X86.135 Y86.915
;TYPE:WALL-OUTER
G1 F900 X85.848 Y87.356 E20.39804
G1 X85.605 Y87.821 E20.41551
G1 X85.409 Y88.309 E20.43303
G1 X85.261 Y88.813 E20.45053
G1 X85.163 Y89.33 E20.46806
G1 X85.117 Y89.853 E20.48555
G1 X85.122 Y90.379 E20.50307
G1 X85.179 Y90.901 E20.52056
G1 X85.286 Y91.416 E20.53808
G1 X85.443 Y91.918 E20.5556
G1 X85.65 Y92.401 E20.57311
G1 X85.902 Y92.862 E20.59061
G1 X86.198 Y93.296 E20.6081
G1 X86.535 Y93.699 E20.6256
G1 X86.911 Y94.067 E20.64313
G1 X87.321 Y94.397 E20.66066
G1 X87.76 Y94.684 E20.67813
G1 X88.226 Y94.927 E20.69564
G1 X88.714 Y95.123 E20.71316
G1 X89.218 Y95.271 E20.73065
G1 X89.735 Y95.369 E20.74818
G1 X90.258 Y95.415 E20.76567
G1 X90.784 Y95.41 E20.78319
G1 X91.306 Y95.353 E20.80068
G1 X91.821 Y95.246 E20.8182
G1 X92.323 Y95.089 E20.83572
G1 X92.806 Y94.882 E20.85323
G1 X93.267 Y94.63 E20.87073
G1 X93.701 Y94.334 E20.88823
G1 X94.104 Y93.997 E20.90573
G1 X94.472 Y93.621 E20.92325
G1 X94.802 Y93.211 E20.94078
G1 X95.089 Y92.772 E20.95826
G1 X95.332 Y92.306 E20.97576
G1 X95.528 Y91.818 E20.99328
G1 X95.676 Y91.314 E21.01078
G1 X95.774 Y90.797 E21.0283
G1 X95.82 Y90.274 E21.04579
G1 X95.815 Y89.748 E21.06331
G1 X95.758 Y89.226 E21.08081
G1 X95.651 Y88.711 E21.09833
G1 X95.494 Y88.209 E21.11585
G1 X95.287 Y87.726 E21.13335
G1 X95.035 Y87.265 E21.15085
G1 X94.739 Y86.831 E21.16835
G1 X94.402 Y86.428 E21.18585
G1 X94.026 Y86.06 E21.20338
G1 X93.617 Y85.73 E21.22088
G1 X93.176 Y85.443 E21.23841
G1 X92.711 Y85.2 E21.25589
G1 X92.223 Y85.004 E21.2734
G1 X91.719 Y84.856 E21.2909
G1 X91.202 Y84.758 E21.30843
G1 X90.679 Y84.712 E21.32592
G1 X90.153 Y84.717 E21.34344
G1 X89.631 Y84.774 E21.36093
G1 X89.116 Y84.881 E21.37845
G1 X88.614 Y85.038 E21.39597
G1 X88.131 Y85.245 E21.41348
G1 X87.67 Y85.497 E21.43098
G1 X87.236 Y85.793 E21.44848
G1 X86.833 Y86.13 E21.46597
G1 X86.465 Y86.506 E21.4835
G1 X86.135 Y86.915 E21.50101
G0 F2625 X85.999 Y87.124
G0 X85.498 Y86.796
G0 X91.323 Y75.411
G0 X92.059 Y74.535
G0 X92.356 Y75.055
G1 F900 X92.041 Y75.34 E21.51516
G1 X91.792 Y75.683 E21.52927
G1 X91.618 Y76.07 E21.54341
G1 X91.53 Y76.486 E21.55757
G1 X91.53 Y76.91 E21.5717
G1 X91.617 Y77.324 E21.58579
G1 X91.789 Y77.713 E21.59996
G1 X92.039 Y78.056 E21.61409
G1 X92.354 Y78.34 E21.62822
G1 X92.722 Y78.553 E21.64238
G1 X93.126 Y78.684 E21.65653
G1 X93.534 Y78.727 E21.6702
G1 X94.322 Y78.728 E21.69645
G1 X94.731 Y78.685 E21.71015
G1 X95.135 Y78.555 E21.72428
G1 X95.503 Y78.342 E21.73845
G1 X95.818 Y78.059 E21.75255
G1 X96.068 Y77.716 E21.76669
G1 X96.24 Y77.329 E21.7808
G1 X96.329 Y76.913 E21.79497
G1 X96.329 Y76.49 E21.80906
G1 X96.241 Y76.075 E21.82319
G1 X96.069 Y75.687 E21.83733
G1 X95.82 Y75.342 E21.8515
G1 X95.505 Y75.058 E21.86563
G1 X95.137 Y74.845 E21.87979
G1 X94.734 Y74.714 E21.89391
G1 X94.325 Y74.671 E21.9076
G1 X93.537 Y74.67 E21.93385
G1 X93.129 Y74.713 E21.94752
G1 X92.725 Y74.844 E21.96167
G1 X92.356 Y75.055 E21.97583
G0 F2625 X92.171 Y75.223
G0 X91.77 Y74.777
G0 X91.323 Y75.411
G0 X91.102 Y75.902
G0 X90.991 Y76.43
G0 X90.991 Y76.966
G0 X91.1 Y77.49
G0 X91.319 Y77.983
G0 X91.637 Y78.419
G0 X92.035 Y78.778
G0 X92.501 Y79.048
G0 X93.014 Y79.215
G0 X94.35 Y79.267
G0 X94.843 Y79.216
G0 X95.355 Y79.051
G0 X95.618 Y78.899
G0 X99.451 Y75.79
G0 X100.043 Y75.544
