;Generated by Cura LulzBot Edition GCodeWriter Version: 3.2.21
;FLAVOR:Marlin
;TIME:2331
;Filament used: 0.90714m
;Layer height: 0.18
;Generated with Cura_SteamEngine 3.2.21
M82 ;absolute extrusion mode
;This G-Code has been generated specifically for the LulzBot Mini with standard extruder
M75 ; Start GLCD Timer
G26 ; clear potential 'probe fail' condition
G21 ; set units to Millimetres
M107 ; disable fans
G90 ; absolute positioning
M82 ; set extruder to absolute mode
G92 E0 ; set extruder position to 0
M140 S60 ; start bed heating up
G28 ; home all axes
G0 X0 Y187 Z156 F200 ; move away from endstops
M109 R140 ;
G1 E-30 F75 ; retract filament
M109 R140 ; wait for extruder to reach wiping temp
G1 X45 Y173 F11520 ; move above wiper pad
G1 Z0 F1200 ; push nozzle into wiper
G1 X42 Y173 Z-.5 F4000             ; wiping
G1 X52 Y171 Z-.5 F4000             ; wiping
G1 X42 Y173 Z0 F4000               ; wiping
G1 X52 Y171 F4000                  ; wiping
G1 X42 Y173 F4000                  ; wiping
G1 X52 Y171 F4000                  ; wiping
G1 X42 Y173 F4000                  ; wiping
G1 X52 Y171 F4000                  ; wiping
G1 X57 Y173 F4000                  ; wiping
G1 X77 Y171 F4000                  ; wiping
G1 X57 Y173 F4000                  ; wiping
G1 X77 Y171 F4000                  ; wiping
G1 X57 Y173 F4000                  ; wiping
G1 X87 Y171 F4000                  ; wiping
G1 X77 Y173 F4000                  ; wiping
G1 X97 Y171 F4000                  ; wiping
G1 X77 Y173 F4000                  ; wiping
G1 X97 Y171 F4000                  ; wiping
G1 X77 Y173 F4000                  ; wiping
G1 X97 Y171 F4000                  ; wiping
G1 X107 Y173 F4000                 ; wiping
G1 X97 Y171 F4000                  ; wiping
G1 X107 Y173 F4000                 ; wiping
G1 X97 Y171 F4000                  ; wiping
G1 X107 Y173 F4000                 ; wiping
G1 X112 Y171 Z-0.5 F1000           ; wiping
G1 Z10 ; raise extruder
G28 X0 Y0 ; home X and Y
G0 X0 Y187 F200 ; move away from endstops
M109 R140 ; wait for extruder to reach probe temp
M204 S300 ; set probing acceleration
G29 ; start auto-leveling sequence
M204 S2000 ; restore standard acceleration
G28 X0 Y0 ; re-home to account for build variance of earlier mini builds
G0 X0 Y187 F200 ; move away from endstops
G0 Y152 F4000 ; move in front of wiper pad
G4 S1 ; pause
M400 ; wait for moves to finish
M117 Heating... ; progress indicator message on LCD
M109 R225 ; wait for extruder to reach printing temp
M190 S60 ; wait for bed to reach printing temp
G1 Z2 E0 F75 ; prime tiny bit of filament into the nozzle
M117 Mini Printing... ; progress indicator message on LCD

M221 S100
;LAYER_COUNT:27
;LAYER:0
M107
G0 F2625 X57.232 Y46.336 Z0.425
;TYPE:SKIRT
G1 F900 X57.695 Y45.766 E0.02446
G1 X59.204 Y44.242 E0.0959
G1 X59.259 Y44.188 E0.09847
G1 X59.745 Y43.717 E0.12101
G1 X60.165 Y43.366 E0.13925
G1 X60.632 Y43.08 E0.15749
G1 X61.135 Y42.864 E0.17572
G1 X61.664 Y42.724 E0.19395
G1 X62.355 Y42.66 E0.21707
G1 X91.644 Y42.66 E1.19269
G1 X92.19 Y42.7 E1.21093
G1 X92.724 Y42.819 E1.22915
G1 X93.235 Y43.014 E1.24737
G1 X93.713 Y43.282 E1.26563
G1 X94.315 Y43.778 E1.29161
G1 X96.3 Y45.792 E1.3858
G1 X96.655 Y46.208 E1.40402
G1 X96.945 Y46.673 E1.42227
G1 X97.164 Y47.174 E1.44049
G1 X97.309 Y47.702 E1.45873
G1 X97.379 Y48.423 E1.48286
G1 X97.39 Y105.594 E3.38724
G1 X97.35 Y106.14 E3.40548
G1 X97.231 Y106.674 E3.4237
G1 X97.036 Y107.186 E3.44195
G1 X96.768 Y107.663 E3.46018
G1 X96.293 Y108.245 E3.4852
G1 X94.308 Y110.232 E3.57876
G1 X93.894 Y110.59 E3.59699
G1 X93.432 Y110.884 E3.61523
G1 X92.933 Y111.108 E3.63345
G1 X92.406 Y111.256 E3.65169
G1 X91.656 Y111.332 E3.6768
G1 X62.356 Y111.34 E4.65279
G1 X61.81 Y111.3 E4.67103
G1 X61.276 Y111.181 E4.68925
G1 X60.765 Y110.986 E4.70747
G1 X60.287 Y110.718 E4.72572
G1 X59.716 Y110.255 E4.75021
G1 X58.192 Y108.746 E4.82165
G1 X58.141 Y108.694 E4.82408
G1 X57.67 Y108.209 E4.8466
G1 X57.318 Y107.789 E4.86485
G1 X57.031 Y107.323 E4.88308
G1 X56.815 Y106.82 E4.90132
G1 X56.675 Y106.291 E4.91954
G1 X56.61 Y105.596 E4.9428
G1 X56.61 Y48.405 E6.84785
G1 X56.65 Y47.859 E6.86608
G1 X56.769 Y47.325 E6.88431
G1 X56.964 Y46.814 E6.90253
G1 X57.232 Y46.336 E6.92078
G0 F2625 X57.73 Y46.496
G1 F900 X58.051 Y46.118 E6.9373
G1 X59.56 Y44.594 E7.00874
G1 X59.607 Y44.547 E7.01095
G1 X60.093 Y44.076 E7.0335
G1 X60.486 Y43.751 E7.05049
G1 X60.924 Y43.492 E7.06744
G1 X61.398 Y43.304 E7.08442
G1 X61.895 Y43.193 E7.10138
G1 X62.355 Y43.16 E7.11675
G1 X91.644 Y43.16 E8.09237
G1 X92.152 Y43.2 E8.10935
G1 X92.647 Y43.319 E8.12631
G1 X93.118 Y43.514 E8.14329
G1 X93.553 Y43.78 E8.16027
G1 X93.959 Y44.129 E8.1781
G1 X95.944 Y46.143 E8.2723
G1 X96.272 Y46.532 E8.28925
G1 X96.535 Y46.969 E8.30624
G1 X96.727 Y47.441 E8.32321
G1 X96.842 Y47.937 E8.34017
G1 X96.879 Y48.423 E8.35641
G1 X96.89 Y105.594 E10.26079
G1 X96.85 Y106.102 E10.27777
G1 X96.731 Y106.598 E10.29476
G1 X96.537 Y107.069 E10.31173
G1 X96.271 Y107.503 E10.32868
G1 X95.939 Y107.892 E10.34572
G1 X93.954 Y109.879 E10.43928
G1 X93.567 Y110.21 E10.45624
G1 X93.133 Y110.477 E10.47321
G1 X92.662 Y110.672 E10.49019
G1 X92.167 Y110.791 E10.50715
G1 X91.656 Y110.832 E10.52423
G1 X62.356 Y110.84 E11.50022
G1 X61.848 Y110.8 E11.51719
G1 X61.352 Y110.682 E11.53418
G1 X60.882 Y110.487 E11.55113
G1 X60.447 Y110.221 E11.56811
G1 X60.068 Y109.899 E11.58468
G1 X58.544 Y108.39 E11.65612
G1 X58.499 Y108.345 E11.65824
G1 X58.028 Y107.86 E11.68076
G1 X57.703 Y107.468 E11.69772
G1 X57.443 Y107.03 E11.71469
G1 X57.255 Y106.556 E11.73167
G1 X57.143 Y106.059 E11.74864
G1 X57.11 Y105.596 E11.7641
G1 X57.11 Y48.405 E13.66916
G1 X57.15 Y47.897 E13.68613
G1 X57.269 Y47.402 E13.70309
G1 X57.464 Y46.931 E13.72007
G1 X57.73 Y46.496 E13.73705
G1 F600 E11.98705
G1 F480 Z1.425
G0 F2625 X71.438 Y65.006 Z1.425
;TYPE:WALL-INNER
G1 F480 Z0.425
G1 F600 E13.73705
G1 F900 X71.278 Y65.559 E13.75623
G1 X71.171 Y66.122 E13.77532
G1 X71.121 Y66.694 E13.79445
G1 X71.125 Y67.269 E13.8136
G1 X71.188 Y67.841 E13.83277
G1 X71.306 Y68.403 E13.8519
G1 X71.477 Y68.952 E13.87105
G1 X71.703 Y69.481 E13.89021
G1 X71.979 Y69.984 E13.90933
G1 X72.302 Y70.459 E13.92846
G1 X72.672 Y70.9 E13.94763
G1 X73.082 Y71.302 E13.96676
G1 X73.53 Y71.663 E13.98593
G1 X74.012 Y71.977 E14.00509
G1 X74.521 Y72.243 E14.02422
G1 X75.054 Y72.457 E14.04335
G1 X75.604 Y72.619 E14.06245
G1 X76.17 Y72.726 E14.08164
G1 X76.742 Y72.776 E14.10076
G1 X77.318 Y72.771 E14.11995
G1 X77.888 Y72.708 E14.13905
G1 X78.451 Y72.592 E14.1582
G1 X79.001 Y72.42 E14.1774
G1 X79.529 Y72.193 E14.19654
G1 X80.032 Y71.918 E14.21564
G1 X80.507 Y71.594 E14.23479
G1 X80.948 Y71.226 E14.25392
G1 X81.35 Y70.815 E14.27307
G1 X81.711 Y70.367 E14.29224
G1 X82.025 Y69.885 E14.3114
G1 X82.291 Y69.376 E14.33053
G1 X82.505 Y68.843 E14.34966
G1 X82.667 Y68.292 E14.36879
G1 X82.774 Y67.727 E14.38795
G1 X82.824 Y67.155 E14.40707
G1 X82.819 Y66.579 E14.42626
G1 X82.756 Y66.009 E14.44536
G1 X82.639 Y65.446 E14.46452
G1 X82.467 Y64.896 E14.48371
G1 X82.241 Y64.368 E14.50285
G1 X81.966 Y63.865 E14.52194
G1 X81.642 Y63.39 E14.54109
G1 X81.274 Y62.949 E14.56023
G1 X80.862 Y62.547 E14.5794
G1 X80.414 Y62.186 E14.59857
G1 X79.934 Y61.872 E14.61767
G1 X79.424 Y61.606 E14.63683
G1 X78.891 Y61.392 E14.65596
G1 X78.34 Y61.23 E14.6751
G1 X77.775 Y61.123 E14.69425
G1 X77.203 Y61.073 E14.71338
G1 X76.627 Y61.078 E14.73256
G1 X76.057 Y61.141 E14.75167
G1 X75.494 Y61.257 E14.77081
G1 X74.944 Y61.429 E14.79001
G1 X74.416 Y61.656 E14.80915
G1 X73.913 Y61.931 E14.82825
G1 X73.438 Y62.255 E14.8474
G1 X72.997 Y62.623 E14.86654
G1 X72.595 Y63.035 E14.88571
G1 X72.235 Y63.482 E14.90483
G1 X71.919 Y63.964 E14.92403
G1 X71.655 Y64.472 E14.9431
G1 X71.438 Y65.006 E14.9623
G0 F2625 X71.344 Y64.974
G0 X66.092 Y99.723
G0 X66.142 Y101.061
G0 X66.091 Y101.552
G0 X65.924 Y102.065
G0 X65.654 Y102.53
G0 X65.295 Y102.928
G0 X64.859 Y103.246
G0 X64.366 Y103.465
G0 X63.841 Y103.574
G0 X63.306 Y103.574
G0 X62.779 Y103.463
G0 X62.286 Y103.243
G0 X61.896 Y102.958
G0 X61.168 Y102.085
G0 X61.259 Y102.045
G1 F900 X61.525 Y102.504 E14.97997
G1 X61.589 Y102.576 E14.98318
G1 X61.878 Y102.897 E14.99757
G1 X62.306 Y103.209 E15.01521
G1 X62.791 Y103.425 E15.03289
G1 X63.31 Y103.535 E15.05057
G1 X63.837 Y103.535 E15.06812
G1 X64.354 Y103.427 E15.08571
G1 X64.84 Y103.212 E15.10342
G1 X65.269 Y102.899 E15.1211
G1 X65.622 Y102.507 E15.13868
G1 X65.888 Y102.049 E15.15632
G1 X66.052 Y101.544 E15.17401
G1 X66.103 Y101.059 E15.19025
G1 X66.104 Y100.218 E15.21826
G1 X66.053 Y99.731 E15.23458
G1 X65.891 Y99.227 E15.25221
G1 X65.625 Y98.768 E15.26988
G1 X65.272 Y98.375 E15.28748
G1 X64.844 Y98.063 E15.30512
G1 X64.361 Y97.848 E15.32273
G1 X63.842 Y97.737 E15.34041
G1 X63.312 Y97.737 E15.35806
G1 X62.796 Y97.847 E15.37564
G1 X62.312 Y98.061 E15.39327
G1 X61.882 Y98.372 E15.41094
G1 X61.59 Y98.696 E15.42547
G1 X61.528 Y98.765 E15.42856
G1 X61.262 Y99.224 E15.44623
G1 X61.1 Y99.721 E15.46365
G1 X61.1 Y99.224
G1 X61.1 Y98.765 E15.46895
G1 X61.1 Y98.672 E15.47184
G1 X61.1 Y65.658 E16.57155
G1 X61.1 Y65.367 E16.58124
G1 X61.1 Y64.908 E16.59653
G1 X61.1 Y64.877 E16.59756
G1 X61.11 Y64.908
G1 X61.376 Y65.367 E16.60153
G1 X61.571 Y65.583 E16.60919
G1 X61.73 Y65.76 E16.61712
G1 X62.156 Y66.07 E16.63467
G1 X62.641 Y66.286 E16.65235
G1 X63.159 Y66.396 E16.66999
G1 X63.687 Y66.396 E16.68758
G1 X64.207 Y66.286 E16.70529
G1 X64.691 Y66.07 E16.72294
G1 X65.118 Y65.76 E16.74052
G1 X65.473 Y65.366 E16.75818
G1 X65.737 Y64.907 E16.77582
G1 X65.901 Y64.403 E16.79348
G1 X65.952 Y63.917 E16.80976
G1 X65.952 Y63.077 E16.83774
G1 X65.901 Y62.59 E16.85405
G1 X65.737 Y62.086 E16.8717
G1 X65.473 Y61.627 E16.88934
G1 X65.118 Y61.233 E16.90701
G1 X64.69 Y60.922 E16.92463
G1 X64.207 Y60.708 E16.94223
G1 X63.688 Y60.597 E16.95991
G1 X63.157 Y60.597 E16.97759
G1 X62.641 Y60.708 E16.99517
G1 X62.157 Y60.922 E17.0128
G1 X61.73 Y61.233 E17.0304
G1 X61.571 Y61.41 E17.03832
G1 X61.376 Y61.626 E17.04802
G1 X61.11 Y62.085 E17.06569
G1 X61.1 Y62.116 E17.06677
G1 X61.1 Y62.085
G1 X61.1 Y61.626
G1 X61.1 Y61.335 E17.07444
G1 X61.1 Y48.712 E17.49492
G1 X62.662 Y47.15 E17.5685
G1 X91.338 Y47.15 E18.52371
G1 X92.9 Y48.712 E18.59729
G1 X92.9 Y61.587 E19.02616
G1 X92.9 Y61.64 E19.02793
G1 X92.9 Y62.099 E19.04322
G1 X92.9 Y62.603 E19.06
G1 X92.9 Y62.898 E19.06983
G1 X92.869 Y62.603
G1 X92.707 Y62.099 E19.0719
G1 X92.441 Y61.64 E19.08364
G1 X92.406 Y61.601 E19.08532
G1 X92.088 Y61.246 E19.1012
G1 X91.66 Y60.936 E19.1188
G1 X91.177 Y60.719 E19.13644
G1 X90.657 Y60.609 E19.15414
G1 X90.13 Y60.609 E19.1717
G1 X89.613 Y60.717 E19.18929
G1 X89.128 Y60.932 E19.20696
G1 X88.698 Y61.244 E19.22466
G1 X88.344 Y61.637 E19.24228
G1 X88.078 Y62.095 E19.25992
G1 X87.914 Y62.6 E19.27761
G1 X87.863 Y63.085 E19.29385
G1 X87.862 Y63.926 E19.32187
G1 X87.913 Y64.413 E19.33818
G1 X88.075 Y64.917 E19.35581
G1 X88.341 Y65.376 E19.37348
G1 X88.694 Y65.769 E19.39108
G1 X89.124 Y66.081 E19.40878
G1 X89.606 Y66.296 E19.42636
G1 X90.125 Y66.407 E19.44404
G1 X90.654 Y66.407 E19.46166
G1 X91.172 Y66.297 E19.4793
G1 X91.655 Y66.083 E19.49689
G1 X92.084 Y65.772 E19.51454
G1 X92.406 Y65.415 E19.53056
G1 X92.438 Y65.379 E19.53216
G1 X92.704 Y64.92 E19.54983
G1 X92.868 Y64.417 E19.56746
G1 X92.9 Y64.111 E19.57771
G1 X92.9 Y64.417
G1 X92.9 Y64.92 E19.58136
G1 X92.9 Y65.379 E19.58853
G1 X92.9 Y65.428 E19.59011
G1 X92.9 Y98.529 E20.69271
G1 X92.9 Y98.777 E20.70098
G1 X92.9 Y99.236 E20.71626
G1 X92.9 Y99.368 E20.72066
G1 X92.857 Y99.236
G1 X92.591 Y98.777 E20.72598
G1 X92.425 Y98.593 E20.73276
G1 X92.237 Y98.384 E20.74213
G1 X91.809 Y98.074 E20.75973
G1 X91.325 Y97.858 E20.77739
G1 X90.807 Y97.748 E20.79503
G1 X90.279 Y97.748 E20.81261
G1 X89.759 Y97.858 E20.83032
G1 X89.276 Y98.074 E20.84794
G1 X88.849 Y98.384 E20.86552
G1 X88.494 Y98.778 E20.88319
G1 X88.23 Y99.237 E20.90082
G1 X88.066 Y99.741 E20.91848
G1 X88.015 Y100.227 E20.93476
G1 X88.015 Y101.067 E20.96274
G1 X88.066 Y101.554 E20.97905
G1 X88.23 Y102.058 E20.9967
G1 X88.494 Y102.517 E21.01434
G1 X88.849 Y102.911 E21.03201
G1 X89.277 Y103.222 E21.04963
G1 X89.759 Y103.436 E21.0672
G1 X90.278 Y103.547 E21.08488
G1 X90.809 Y103.547 E21.10256
G1 X91.326 Y103.436 E21.12018
G1 X91.808 Y103.222 E21.13774
G1 X92.237 Y102.911 E21.1554
G1 X92.425 Y102.702 E21.16476
G1 X92.591 Y102.518 E21.17301
G1 X92.857 Y102.059 E21.19069
G1 X92.9 Y101.927 E21.19531
G1 X92.9 Y102.059
G1 X92.9 Y102.518
G1 X92.9 Y102.766 E21.2021
G1 X92.9 Y105.288 E21.28611
G1 X91.338 Y106.85 E21.35969
G1 X62.662 Y106.85 E22.3149
G1 X61.1 Y105.288 E22.38848
G1 X61.1 Y102.601 E22.47799
G1 X61.1 Y102.504 E22.4802
G1 X61.1 Y102.045 E22.48887
G1 X61.1 Y101.55 E22.50536
G1 X61.259 Y102.045
G0 F2625 X61.168 Y102.085
G0 X61.852 Y102.926
G0 X62.286 Y103.243
G0 X62.779 Y103.463
G0 X63.306 Y103.574
G0 X63.841 Y103.574
G0 X64.941 Y103.261
G0 X64.589 Y102.776
;TYPE:WALL-OUTER
G1 F900 X64.932 Y102.526 E22.5195
G1 X65.216 Y102.211 E22.53363
G1 X65.429 Y101.844 E22.54776
G1 X65.56 Y101.44 E22.56191
G1 X65.603 Y101.032 E22.57557
G1 X65.604 Y100.244 E22.60182
G1 X65.561 Y99.835 E22.61552
G1 X65.431 Y99.431 E22.62966
G1 X65.218 Y99.063 E22.64382
G1 X64.935 Y98.748 E22.65793
G1 X64.592 Y98.498 E22.67207
G1 X64.205 Y98.326 E22.68617
G1 X63.789 Y98.237 E22.70034
G1 X63.365 Y98.237 E22.71447
G1 X62.951 Y98.325 E22.72857
G1 X62.562 Y98.497 E22.74273
G1 X62.218 Y98.746 E22.75688
G1 X61.934 Y99.061 E22.77101
G1 X61.721 Y99.429 E22.78517
G1 X61.59 Y99.832 E22.79929
G1 X61.547 Y100.241 E22.81299
G1 X61.546 Y101.029 E22.83923
G1 X61.589 Y101.437 E22.8529
G1 X61.719 Y101.841 E22.86704
G1 X61.932 Y102.209 E22.8812
G1 X62.215 Y102.524 E22.89531
G1 X62.558 Y102.774 E22.90944
G1 X62.946 Y102.947 E22.92359
G1 X63.362 Y103.035 E22.93776
G1 X63.785 Y103.035 E22.95185
G1 X64.2 Y102.948 E22.96597
G1 X64.589 Y102.776 E22.98014
G0 F2625 X64.791 Y102.629
G0 X65.143 Y103.113
G0 X89.791 Y97.75
G0 X89.915 Y98.336
G1 F900 X89.528 Y98.509 E22.99426
G1 X89.185 Y98.758 E23.00838
G1 X88.901 Y99.073 E23.02251
G1 X88.689 Y99.441 E23.03665
G1 X88.558 Y99.845 E23.0508
G1 X88.515 Y100.253 E23.06447
G1 X88.515 Y101.041 E23.09072
G1 X88.558 Y101.45 E23.10442
G1 X88.689 Y101.854 E23.11856
G1 X88.901 Y102.222 E23.13271
G1 X89.185 Y102.537 E23.14684
G1 X89.528 Y102.786 E23.16096
G1 X89.915 Y102.958 E23.17506
G1 X90.331 Y103.047 E23.18923
G1 X90.756 Y103.047 E23.20339
G1 X91.17 Y102.958 E23.2175
G1 X91.557 Y102.786 E23.2316
G1 X91.901 Y102.537 E23.24575
G1 X92.185 Y102.222 E23.25988
G1 X92.398 Y101.854 E23.27404
G1 X92.529 Y101.45 E23.28819
G1 X92.572 Y101.041 E23.30189
G1 X92.572 Y100.253 E23.32813
G1 X92.529 Y99.845 E23.3418
G1 X92.398 Y99.441 E23.35595
G1 X92.185 Y99.073 E23.37011
G1 X91.901 Y98.758 E23.38424
G1 X91.558 Y98.509 E23.39836
G1 X91.17 Y98.336 E23.41251
G1 X90.755 Y98.248 E23.42664
G1 X90.331 Y98.248 E23.44076
G1 X89.915 Y98.336 E23.45493
G0 F2625 X89.687 Y98.438
G0 X89.444 Y97.89
G0 X87.823 Y63.928
G0 X87.875 Y62.592
G0 X88.042 Y62.079
G0 X88.312 Y61.614
G0 X88.672 Y61.215
G0 X89.109 Y60.898
G0 X89.601 Y60.679
G0 X90.025 Y60.591
G0 X91.146 Y60.612
G0 X91.021 Y61.197
G1 F900 X90.605 Y61.109 E23.46909
G1 X90.182 Y61.109 E23.48318
G1 X89.767 Y61.196 E23.49731
G1 X89.379 Y61.368 E23.51144
G1 X89.034 Y61.618 E23.52563
G1 X88.75 Y61.933 E23.53976
G1 X88.537 Y62.3 E23.5539
G1 X88.406 Y62.704 E23.56804
G1 X88.363 Y63.112 E23.58171
G1 X88.362 Y63.9 E23.60796
G1 X88.405 Y64.309 E23.62166
G1 X88.535 Y64.713 E23.63579
G1 X88.748 Y65.081 E23.64996
G1 X89.031 Y65.396 E23.66406
G1 X89.375 Y65.646 E23.67823
G1 X89.762 Y65.818 E23.69234
G1 X90.178 Y65.907 E23.70651
G1 X90.602 Y65.907 E23.72063
G1 X91.017 Y65.819 E23.73476
G1 X91.404 Y65.647 E23.74887
G1 X91.748 Y65.398 E23.76301
G1 X92.032 Y65.083 E23.77714
G1 X92.245 Y64.715 E23.79131
G1 X92.376 Y64.312 E23.80542
G1 X92.419 Y63.903 E23.81912
G1 X92.42 Y63.115 E23.84537
G1 X92.377 Y62.707 E23.85903
G1 X92.247 Y62.303 E23.87317
G1 X92.034 Y61.935 E23.88733
G1 X91.751 Y61.62 E23.90144
G1 X91.408 Y61.371 E23.91556
G1 X91.021 Y61.197 E23.92969
G0 F2625 X90.777 Y61.146
G0 X90.901 Y60.56
G0 X92.808 Y48.75
G0 X93.4 Y48.504
G1 F900 X93.4 Y105.496 E25.82812
