;Generated by Cura LulzBot Edition GCodeWriter Version: 3.2.21
;FLAVOR:Marlin
;TIME:7899
;Filament used: 2.16589m
;Layer height: 0.18
;Generated with Cura_SteamEngine 3.2.21
M82 ;absolute extrusion mode
;This G-Code has been generated specifically for the LulzBot Mini with standard extruder
M75 ; Start GLCD Timer
G26 ; clear potential 'probe fail' condition
G21 ; set units to Millimetres
M107 ; disable fans
G90 ; absolute positioning
M82 ; set extruder to absolute mode
G92 E0 ; set extruder position to 0
M140 S60 ; start bed heating up
G28 ; home all axes
G0 X0 Y187 Z156 F200 ; move away from endstops
M109 R140 ;
G1 E-30 F75 ; retract filament
M109 R140 ; wait for extruder to reach wiping temp
G1 X45 Y173 F11520 ; move above wiper pad
G1 Z0 F1200 ; push nozzle into wiper
G1 X42 Y173 Z-.5 F4000             ; wiping
G1 X52 Y171 Z-.5 F4000             ; wiping
G1 X42 Y173 Z0 F4000               ; wiping
G1 X52 Y171 F4000                  ; wiping
G1 X42 Y173 F4000                  ; wiping
G1 X52 Y171 F4000                  ; wiping
G1 X42 Y173 F4000                  ; wiping
G1 X52 Y171 F4000                  ; wiping
G1 X57 Y173 F4000                  ; wiping
G1 X77 Y171 F4000                  ; wiping
G1 X57 Y173 F4000                  ; wiping
G1 X77 Y171 F4000                  ; wiping
G1 X57 Y173 F4000                  ; wiping
G1 X87 Y171 F4000                  ; wiping
G1 X77 Y173 F4000                  ; wiping
G1 X97 Y171 F4000                  ; wiping
G1 X77 Y173 F4000                  ; wiping
G1 X97 Y171 F4000                  ; wiping
G1 X77 Y173 F4000                  ; wiping
G1 X97 Y171 F4000                  ; wiping
G1 X107 Y173 F4000                 ; wiping
G1 X97 Y171 F4000                  ; wiping
G1 X107 Y173 F4000                 ; wiping
G1 X97 Y171 F4000                  ; wiping
G1 X107 Y173 F4000                 ; wiping
G1 X112 Y171 Z-0.5 F1000           ; wiping
G1 Z10 ; raise extruder
G28 X0 Y0 ; home X and Y
G0 X0 Y187 F200 ; move away from endstops
M109 R140 ; wait for extruder to reach probe temp
M204 S300 ; set probing acceleration
G29 ; start auto-leveling sequence
M204 S2000 ; restore standard acceleration
G28 X0 Y0 ; re-home to account for build variance of earlier mini builds
G0 X0 Y187 F200 ; move away from endstops
G0 Y152 F4000 ; move in front of wiper pad
G4 S1 ; pause
M400 ; wait for moves to finish
M117 Heating... ; progress indicator message on LCD
M109 R225 ; wait for extruder to reach printing temp
M190 S60 ; wait for bed to reach printing temp
G1 Z2 E0 F75 ; prime tiny bit of filament into the nozzle
M117 Mini Printing... ; progress indicator message on LCD

M221 S100
;LAYER_COUNT:216
;LAYER:0
M107
G0 F2625 X47.558 Y64.818 Z0.425
;TYPE:SKIRT
G1 F900 X48.018 Y64.521 E0.01824
G1 X48.517 Y64.295 E0.03649
G1 X49.043 Y64.144 E0.05472
G1 X49.396 Y64.087 E0.06663
G1 X56.663 Y63.273 E0.31021
G1 X57.081 Y63.25 E0.32415
G1 X97.242 Y63.26 E1.66193
G1 X97.67 Y63.285 E1.67621
G1 X104.599 Y64.083 E1.90854
G1 X105.137 Y64.185 E1.92678
G1 X105.654 Y64.364 E1.94501
G1 X106.139 Y64.617 E1.96323
G1 X106.771 Y65.107 E1.98987
G1 X107.041 Y65.367 E2.00235
G1 X107.407 Y65.774 E2.02059
G1 X107.709 Y66.231 E2.03883
G1 X107.942 Y66.726 E2.05706
G1 X108.1 Y67.25 E2.07529
G1 X108.18 Y67.791 E2.0935
G1 X108.19 Y68.068 E2.10274
G1 X108.19 Y85.928 E2.69766
G1 X108.15 Y86.474 E2.7159
G1 X108.031 Y87.008 E2.73412
G1 X107.836 Y87.519 E2.75234
G1 X107.568 Y87.997 E2.77059
G1 X107.117 Y88.554 E2.79447
G1 X106.864 Y88.812 E2.8065
G1 X106.454 Y89.173 E2.8247
G1 X105.995 Y89.472 E2.84295
G1 X105.497 Y89.7 E2.86119
G1 X104.972 Y89.853 E2.87941
G1 X104.604 Y89.913 E2.89183
G1 X97.337 Y90.727 E3.13541
G1 X96.919 Y90.75 E3.14935
G1 X56.759 Y90.74 E4.4871
G1 X56.331 Y90.715 E4.50138
G1 X49.401 Y89.917 E4.73374
G1 X48.863 Y89.815 E4.75198
G1 X48.346 Y89.636 E4.77021
G1 X47.861 Y89.383 E4.78843
G1 X47.239 Y88.903 E4.8146
G1 X46.969 Y88.645 E4.82704
G1 X46.602 Y88.239 E4.84527
G1 X46.298 Y87.784 E4.8635
G1 X46.064 Y87.29 E4.88171
G1 X45.903 Y86.766 E4.89997
G1 X45.821 Y86.225 E4.91819
G1 X45.81 Y85.934 E4.92789
G1 X45.81 Y68.07 E5.52295
G1 X45.85 Y67.524 E5.54119
G1 X45.969 Y66.99 E5.55941
G1 X46.164 Y66.479 E5.57763
G1 X46.432 Y66.001 E5.59588
G1 X46.893 Y65.434 E5.62023
G1 X47.146 Y65.178 E5.63221
G1 X47.558 Y64.818 E5.65044
G0 F2625 X47.887 Y65.196
G1 F900 X48.32 Y64.927 E5.66742
G1 X48.789 Y64.729 E5.68438
G1 X49.451 Y64.584 E5.70695
G1 X56.718 Y63.77 E5.95053
G1 X57.081 Y63.75 E5.96264
G1 X97.242 Y63.76 E7.30042
G1 X97.613 Y63.781 E7.3128
G1 X104.542 Y64.579 E7.54513
G1 X105.042 Y64.677 E7.5621
G1 X105.52 Y64.852 E7.57906
G1 X105.966 Y65.099 E7.59604
G1 X106.424 Y65.467 E7.61561
G1 X106.694 Y65.727 E7.6281
G1 X107.033 Y66.108 E7.64509
G1 X107.307 Y66.537 E7.66204
G1 X107.511 Y67.004 E7.67902
G1 X107.639 Y67.497 E7.69598
G1 X107.69 Y68.068 E7.71508
G1 X107.69 Y85.928 E8.31
G1 X107.65 Y86.436 E8.32698
G1 X107.531 Y86.931 E8.34393
G1 X107.336 Y87.402 E8.36092
G1 X107.07 Y87.837 E8.3779
G1 X106.76 Y88.204 E8.3939
G1 X106.507 Y88.462 E8.40594
G1 X106.123 Y88.796 E8.42289
G1 X105.692 Y89.067 E8.43985
G1 X105.223 Y89.267 E8.45683
G1 X104.549 Y89.416 E8.47983
G1 X97.282 Y90.23 E8.72341
G1 X96.919 Y90.25 E8.73552
G1 X56.759 Y90.24 E10.07326
G1 X56.388 Y90.219 E10.08564
G1 X49.458 Y89.421 E10.31801
G1 X48.958 Y89.323 E10.33498
G1 X48.48 Y89.148 E10.35193
G1 X48.034 Y88.901 E10.36892
G1 X47.585 Y88.542 E10.38807
G1 X47.315 Y88.284 E10.40051
G1 X46.975 Y87.904 E10.41749
G1 X46.699 Y87.476 E10.43445
G1 X46.493 Y87.01 E10.45143
G1 X46.363 Y86.517 E10.46841
G1 X46.31 Y85.934 E10.48791
G1 X46.31 Y68.07 E11.08297
G1 X46.35 Y67.562 E11.09994
G1 X46.469 Y67.067 E11.1169
G1 X46.664 Y66.596 E11.13388
G1 X46.93 Y66.161 E11.15086
G1 X47.248 Y65.785 E11.16727
G1 X47.501 Y65.529 E11.17926
G1 X47.887 Y65.196 E11.19624
G1 F600 E9.44624
G1 F480 Z1.425
G0 F2625 X49.917 Y68.05 Z1.425
;TYPE:SUPPORT
G1 F480 Z0.425
G1 F600 E11.19624
G1 F900 X55 Y68.05 E11.36555
G1 X55 Y72.522 E11.51452
G1 X54.145 Y70.099 E11.60011
G1 X53.555 Y69.756 E11.62284
G1 X51.537 Y70.128 E11.69119
G1 X50.284 Y71.067 E11.74335
G1 X49.8 Y70.583 E11.76615
G1 X49.8 Y68.167 E11.84663
G1 X49.917 Y68.05 E11.85214
G1 F600 E10.10214
G1 F480 Z1.425
G0 F2625 X50.341 Y73.376 Z1.425
G1 F480 Z0.425
G1 F600 E11.85214
G1 F900 X51.47 Y74.389 E11.90267
G1 X52.85 Y74.619 E11.94927
G1 X53.438 Y74.448 E11.96967
G1 X54.851 Y73.187 E12.03275
G1 X55 Y72.609 E12.05263
G1 X55 Y85.95 E12.49703
G1 X49.917 Y85.95 E12.66634
G1 X49.8 Y85.833 E12.67186
G1 X49.8 Y83.417 E12.75233
G1 X50.178 Y83.039 E12.77014
G1 X50.334 Y83.326 E12.78102
G1 X54.108 Y84.835 E12.91641
G1 X54.741 Y84.407 E12.94186
G1 X54.741 Y80.832 E13.06095
G1 X53.422 Y79.513 E13.12308
G1 X51.068 Y79.513 E13.2015
G1 X50.545 Y79.945 E13.22409
G1 X50.402 Y80.685 E13.2492
G1 X49.8 Y80.083 E13.27756
G1 X49.8 Y73.917 E13.48295
G1 X50.341 Y73.376 E13.50843
G1 F600 E11.75843
G1 F480 Z1.425
G0 F2625 X49.999 Y74.97 Z1.425
G1 F480 Z0.425
G1 F600 E13.50843
G1 F900 X54.799 Y74.97 E13.66832
G1 F600 E11.91832
G1 F480 Z1.425
G0 F2625 X53.312 Y74.692 Z1.425
G1 F480 Z0.425
G1 F600 E13.66832
G1 F900 X53.312 Y79.313 E13.82225
G1 F600 E12.07225
G1 F480 Z1.425
G0 F2625 X54.159 Y79.968 Z1.425
G1 F480 Z0.425
G1 F600 E13.82225
G1 F900 X54.799 Y79.968 E13.84357
G1 F600 E12.09357
G1 F480 Z1.425
G0 F2625 X54.799 Y78.302 Z1.425
G1 F480 Z0.425
G1 F600 E13.84357
G1 F900 X49.999 Y78.302 E14.00346
G1 F600 E12.25346
G1 F480 Z1.425
G0 F2625 X49.999 Y76.636 Z1.425
G1 F480 Z0.425
G1 F600 E14.00346
G1 F900 X54.799 Y76.636 E14.16335
G1 F600 E12.41335
G1 F480 Z1.425
G0 F2625 X51.646 Y74.622 Z1.425
G1 F480 Z0.425
G1 F600 E14.16335
G1 F900 X51.646 Y79.313 E14.31961
G1 F600 E12.56961
G1 F480 Z1.425
G0 F2625 X50.336 Y79.968 Z1.425
G1 F480 Z0.425
G1 F600 E14.31961
G1 F900 X49.999 Y79.968 E14.33083
G1 F600 E12.58083
G1 F480 Z1.425
G0 F2625 X51.646 Y84.067 Z1.425
G1 F480 Z0.425
G1 F600 E14.33083
G1 F900 X51.646 Y85.75 E14.3869
G1 F600 E12.6369
G1 F480 Z1.425
G0 F2625 X53.312 Y85.75 Z1.425
G1 F480 Z0.425
G1 F600 E14.3869
G1 F900 X53.312 Y84.733 E14.42077
G0 F2625 X53.896 Y84.966
G1 F900 X49.999 Y84.966 E14.55058
G1 F600 E12.80058
G1 F480 Z1.425
G0 F2625 X54.271 Y84.966 Z1.425
G1 F480 Z0.425
G1 F600 E14.55058
G1 F900 X54.799 Y84.966 E14.56817
G1 F600 E12.81817
G1 F480 Z1.425
G0 F2625 X54.799 Y69.972 Z1.425
G1 F480 Z0.425
G1 F600 E14.56817
G1 F900 X54.311 Y69.972 E14.58443
G1 F600 E12.83443
G1 F480 Z1.425
G0 F2625 X53.312 Y69.597 Z1.425
G1 F480 Z0.425
G1 F600 E14.58443
G1 F900 X53.312 Y68.25 E14.6293
G1 F600 E12.8793
G1 F480 Z1.425
G0 F2625 X54.799 Y68.306 Z1.425
G1 F480 Z0.425
G1 F600 E14.6293
G1 F900 X49.999 Y68.306 E14.78918
G1 F600 E13.03918
G1 F480 Z1.425
G0 F2625 X51.646 Y68.25 Z1.425
G1 F480 Z0.425
G1 F600 E14.78918
G1 F900 X51.646 Y69.905 E14.84431
G0 F2625 X51.411 Y69.972
G1 F900 X49.999 Y69.972 E14.89135
G1 F600 E13.14135
G1 F480 Z1.425
G0 F2625 X99 Y68.05 Z1.425
G1 F480 Z0.425
G1 F600 E14.89135
G1 F900 X104.083 Y68.05 E15.06066
G1 X104.2 Y68.167 E15.06618
G1 X104.2 Y70.583 E15.14665
G1 X103.759 Y71.024 E15.16743
G1 X103.41 Y70.529 E15.1876
G1 X101.442 Y69.819 E15.25729
G1 X100.825 Y69.912 E15.27808
G1 X99.709 Y70.749 E15.32455
G1 X99 Y72.166 E15.37733
G1 X99.064 Y72.805 E15.39872
G1 X100.576 Y74.749 E15.48075
G1 X101.234 Y74.903 E15.50326
G1 X103.448 Y73.822 E15.58533
G1 X103.701 Y73.418 E15.60121
G1 X104.2 Y73.917 E15.62472
G1 X104.2 Y80.083 E15.83011
G1 X103.629 Y80.654 E15.85701
G1 X102.54 Y79.565 E15.90831
G1 X101.949 Y79.378 E15.92896
G1 X100.22 Y79.681 E15.98743
G1 X99.732 Y80.077 E16.00836
G1 X99 Y81.905 E16.07396
G1 X99 Y68.05 E16.53547
G1 F600 E14.78547
G1 F480 Z1.425
G0 F2625 X99 Y83.311 Z1.425
G1 F480 Z0.425
G1 F600 E16.53547
G1 F900 X101.665 Y84.168 E16.62872
G1 X102.279 Y84.056 E16.64951
G1 X103.7 Y82.917 E16.71017
G1 X104.2 Y83.417 E16.73373
G1 X104.2 Y85.833 E16.81421
G1 X104.083 Y85.95 E16.81972
G1 X99 Y85.95 E16.98903
G1 X99 Y83.311 E17.07694
G1 F600 E15.32694
G1 F480 Z1.425
G0 F2625 X99.96 Y83.83 Z1.425
G1 F480 Z0.425
G1 F600 E17.07694
G1 F900 X99.96 Y85.75 E17.1409
G1 F600 E15.3909
G1 F480 Z1.425
G0 F2625 X99.2 Y84.966 Z1.425
G1 F480 Z0.425
G1 F600 E17.1409
G1 F900 X104 Y84.966 E17.30079
G1 F600 E15.55079
G1 F480 Z1.425
G0 F2625 X103.292 Y85.75 Z1.425
G1 F480 Z0.425
G1 F600 E17.30079
G1 F900 X103.292 Y83.5 E17.37573
G0 F2625 X103.542 Y83.3
G1 F900 X103.8 Y83.3 E17.38433
G1 F600 E15.63433
G1 F480 Z1.425
G0 F2625 X101.626 Y84.366 Z1.425
G1 F480 Z0.425
G1 F600 E17.38433
G1 F900 X101.626 Y85.75 E17.43043
G1 F600 E15.68043
G1 F480 Z1.425
G0 F2625 X103.292 Y80.033 Z1.425
G1 F480 Z0.425
G1 F600 E17.43043
G1 F900 X103.292 Y74.12 E17.62739
G1 F600 E15.87739
G1 F480 Z1.425
G0 F2625 X104 Y74.97 Z1.425
G1 F480 Z0.425
G1 F600 E17.62739
G1 F900 X101.553 Y74.97 E17.7089
G0 F2625 X101.626 Y74.934
G1 F900 X101.626 Y79.232 E17.85207
G1 F600 E16.10207
G1 F480 Z1.425
G0 F2625 X99.96 Y79.636 Z1.425
G1 F480 Z0.425
G1 F600 E17.85207
G1 F900 X99.96 Y74.283 E18.03038
G0 F2625 X100.645 Y74.97
G1 F900 X99.2 Y74.97 E18.07852
G1 F600 E16.32852
G1 F480 Z1.425
G0 F2625 X99.2 Y76.636 Z1.425
G1 F480 Z0.425
G1 F600 E18.07852
G1 F900 X104 Y76.636 E18.23841
G1 F600 E16.48841
G1 F480 Z1.425
G0 F2625 X104 Y78.302 Z1.425
G1 F480 Z0.425
G1 F600 E18.23841
G1 F900 X99.2 Y78.302 E18.3983
G1 F600 E16.6483
G1 F480 Z1.425
G0 F2625 X99.2 Y79.968 Z1.425
G1 F480 Z0.425
G1 F600 E18.3983
G1 F900 X99.56 Y79.968 E18.41029
G1 F600 E16.66029
G1 F480 Z1.425
G0 F2625 X103.226 Y79.968 Z1.425
G1 F480 Z0.425
G1 F600 E18.41029
G1 F900 X104 Y79.968 E18.43607
G1 F600 E16.68607
G1 F480 Z1.425
G0 F2625 X103.292 Y70.274 Z1.425
G1 F480 Z0.425
G1 F600 E18.43607
G1 F900 X103.292 Y68.25 E18.50349
G0 F2625 X104 Y68.306
G1 F900 X99.2 Y68.306 E18.66338
G0 F2625 X99.96 Y68.25
G1 F900 X99.96 Y70.311 E18.73203
G0 F2625 X100.411 Y69.972
G1 F900 X99.2 Y69.972 E18.77237
G1 F600 E17.02237
G1 F480 Z1.425
G0 F2625 X101.626 Y69.672 Z1.425
G1 F480 Z0.425
G1 F600 E18.77237
G1 F900 X101.626 Y68.25 E18.81974
G1 F600 E17.06974
G1 F480 Z1.425
G0 F2625 X102.454 Y69.972 Z1.425
G1 F480 Z0.425
G1 F600 E18.81974
G1 F900 X104 Y69.972 E18.87124
G1 F600 E17.12124
G1 F480 Z1.425
G0 F2625 X96.5 Y86.25 Z1.425
;TYPE:WALL-INNER
G1 F480 Z0.425
G1 F600 E18.87124
G1 F900 X57.5 Y86.25 E20.17034
G1 X57.5 Y67.75 E20.78658
G1 X96.5 Y67.75 E22.08569
G1 X96.5 Y86.25 E22.70193
G0 F2625 X97 Y86.75
;TYPE:WALL-OUTER
G1 F900 X57 Y86.75 E24.03434
G1 X57 Y67.25 E24.68389
G1 X97 Y67.25 E26.01631
G1 X97 Y86.75 E26.66586
G0 F2625 X96.75 Y86.75
G0 X96.43 Y86.18
G0 X96.01 Y85.76
;TYPE:SKIN
G1 F900 X57.99 Y85.76 E27.93232
G1 X57.99 Y68.24 E28.51592
G1 X96.01 Y68.24 E29.78238
G1 X96.01 Y85.76 E30.36597
G0 F2625 X95.784 Y68.914
G1 F900 X95.334 Y68.464 E30.38717
G0 F2625 X94.627 Y68.464
G1 F900 X95.784 Y69.621 E30.44168
G1 X95.872 Y69.709
G0 F2625 X95.784 Y70.328
G1 F900 X93.92 Y68.464 E30.52949
G1 X93.832 Y68.376
G0 F2625 X93.213 Y68.464
G1 F900 X95.784 Y71.035 E30.6506
G1 X95.872 Y71.123
G0 F2625 X95.784 Y71.743
G1 F900 X92.506 Y68.464 E30.80504
G1 X92.418 Y68.376
G0 F2625 X91.799 Y68.464
G1 F900 X95.784 Y72.45 E30.99279
G1 X95.872 Y72.538
G0 F2625 X95.784 Y73.157
G1 F900 X91.092 Y68.464 E31.21385
G1 X91.004 Y68.376
G0 F2625 X90.385 Y68.464
G1 F900 X95.784 Y73.864 E31.46821
G1 X95.872 Y73.952
G0 F2625 X95.784 Y74.571
G1 F900 X89.678 Y68.464 E31.75587
G1 X89.59 Y68.376
G0 F2625 X88.971 Y68.464
G1 F900 X95.784 Y75.278 E32.07684
G1 X95.872 Y75.366
G0 F2625 X95.784 Y75.985
G1 F900 X88.263 Y68.464 E32.43114
G1 X88.175 Y68.376
G0 F2625 X87.556 Y68.464
G1 F900 X95.784 Y76.692 E32.81875
G1 X95.872 Y76.78
G0 F2625 X95.784 Y77.399
G1 F900 X86.849 Y68.464 E33.23965
G1 X86.761 Y68.376
G0 F2625 X86.142 Y68.464
G1 F900 X95.784 Y78.107 E33.69389
G1 X95.872 Y78.195
G0 F2625 X95.784 Y78.814
G1 F900 X85.435 Y68.464 E34.18144
G1 X85.347 Y68.376
G0 F2625 X84.728 Y68.464
G1 F900 X95.784 Y79.521 E34.70229
G1 X95.872 Y79.609
G0 F2625 X95.784 Y80.228
G1 F900 X84.021 Y68.464 E35.25644
G1 X83.933 Y68.376
G0 F2625 X83.314 Y68.464
G1 F900 X95.784 Y80.935 E35.8439
G1 X95.872 Y81.023
G0 F2625 X95.784 Y81.642
G1 F900 X82.607 Y68.464 E36.46467
G1 X82.519 Y68.376
G0 F2625 X81.899 Y68.464
G1 F900 X95.784 Y82.349 E37.11876
G1 X95.872 Y82.437
G0 F2625 X95.784 Y83.056
G1 F900 X81.192 Y68.464 E37.80616
G1 X81.104 Y68.376
G0 F2625 X80.485 Y68.464
G1 F900 X95.784 Y83.763 E38.52686
G1 X95.872 Y83.851
G0 F2625 X95.784 Y84.47
G1 F900 X79.778 Y68.464 E39.28087
G1 X79.69 Y68.376
G0 F2625 X79.071 Y68.464
G1 F900 X95.784 Y85.178 E40.06821
G1 X95.872 Y85.266
G0 F2625 X95.433 Y85.534
G1 F900 X78.364 Y68.464 E40.87232
G1 X78.276 Y68.376
G0 F2625 X77.657 Y68.464
G1 F900 X94.726 Y85.534 E41.67643
G1 X94.814 Y85.622
G0 F2625 X94.019 Y85.534
G1 F900 X76.95 Y68.464 E42.48054
G1 X76.862 Y68.376
G0 F2625 X76.243 Y68.464
G1 F900 X93.312 Y85.534 E43.28465
G1 X93.4 Y85.622
G0 F2625 X92.605 Y85.534
G1 F900 X75.535 Y68.464 E44.08878
G1 X75.447 Y68.376
G0 F2625 X74.828 Y68.464
G1 F900 X91.898 Y85.534 E44.89292
G1 X91.986 Y85.622
G0 F2625 X91.191 Y85.534
G1 F900 X74.121 Y68.464 E45.69705
G1 X74.033 Y68.376
G0 F2625 X73.414 Y68.464
G1 F900 X90.484 Y85.534 E46.50118
G1 X90.572 Y85.622
G0 F2625 X89.777 Y85.534
G1 F900 X72.707 Y68.464 E47.30532
G1 X72.619 Y68.376
G0 F2625 X72 Y68.464
G1 F900 X89.069 Y85.534 E48.10942
G1 X89.157 Y85.622
G0 F2625 X88.362 Y85.534
G1 F900 X71.293 Y68.464 E48.91353
G1 X71.205 Y68.376
G0 F2625 X70.586 Y68.464
G1 F900 X87.655 Y85.534 E49.71764
G1 X87.743 Y85.622
G0 F2625 X86.948 Y85.534
G1 F900 X69.879 Y68.464 E50.52175
G1 X69.791 Y68.376
G0 F2625 X69.172 Y68.464
G1 F900 X86.241 Y85.534 E51.32586
G1 X86.329 Y85.622
G0 F2625 X85.534 Y85.534
G1 F900 X68.464 Y68.464 E52.13
G1 X68.376 Y68.376
G0 F2625 X67.757 Y68.464
G1 F900 X84.827 Y85.534 E52.93413
G1 X84.915 Y85.622
G0 F2625 X84.12 Y85.534
G1 F900 X67.05 Y68.464 E53.73826
G1 X66.962 Y68.376
G0 F2625 X66.343 Y68.464
G1 F900 X83.413 Y85.534 E54.54239
G1 X83.501 Y85.622
G0 F2625 X82.706 Y85.534
G1 F900 X65.636 Y68.464 E55.34653
G1 X65.548 Y68.376
G0 F2625 X64.929 Y68.464
G1 F900 X81.998 Y85.534 E56.15064
G1 X82.086 Y85.622
